(Generated by PartKam Version 0.05)

G21 G90 G40

(08mm)
G0 Z3
T0 M6
G17
M3
G0 X18.389593908629443 Y21.079695431472082
G1 Z-2.3 F600
G1 Z0 F600
G0 Z3
G0 X18.389593908629443 Y26.15964467005076
G1 Z-2.3 F600
G1 Z0 F600
G0 Z3
G0 X14.411167512690355 Y24.30736040609137
G1 Z-2.3 F600
G1 Z0 F600
G0 Z3
G0 X9.331218274111675 Y24.30736040609137
G1 Z-2.3 F600
G1 Z0 F600
G0 Z3
G0 X26.609898477157362 Y28.741624365482235
G1 Z-2.3 F600
G1 Z0 F600
G0 Z3
G0 X19.040862944162438 Y28.741624365482235
G1 Z-2.3 F600
G1 Z0 F600
G0 Z3
G0 X3.815736040609137 Y24.9251269035533
G1 Z-2.3 F600
G1 Z0 F600
G0 Z3
G0 X3.815736040609137 Y14.76522842639594
G1 Z-2.3 F600
G1 Z0 F600
G0 Z3
G0 X14.375888324873097 Y28.511675126903555
G1 Z-2.3 F600
G1 Z0 F600
G0 Z3
G0 X14.375888324873097 Y28.511675126903555
G1 Z-2.3 F600
G1 Z0 F600
G0 Z3
G0 X11.835786802030457 Y28.511675126903555
G1 Z-2.3 F600
G1 Z0 F600
G0 Z3
G0 X9.295939086294416 Y28.511675126903555
G1 Z-2.3 F600
G1 Z0 F600
G0 Z3
G0 X11.696954314720813 Y39.53807106598985
G1 Z-2.3 F600
G1 Z0 F600
G0 Z3
G0 X11.696954314720813 Y39.53807106598985
G1 Z-2.3 F600
G1 Z0 F600
G0 Z3
G0 X11.696954314720813 Y36.99822335025381
G1 Z-2.3 F600
G1 Z0 F600
G0 Z3
G0 X11.696954314720813 Y34.45812182741117
G1 Z-2.3 F600
G1 Z0 F600
G0 Z3
G0 X16.466243654822335 Y12.291370558375634
G1 Z-2.3 F600
G1 Z0 F600
G0 Z3
G0 X16.466243654822335 Y12.291370558375634
G1 Z-2.3 F600
G1 Z0 F600
G0 Z3
G0 X8.846192893401016 Y12.291370558375634
G1 Z-2.3 F600
G1 Z0 F600
G0 Z3
G0 X16.466243654822335 Y9.751269035532994
G1 Z-2.3 F600
G1 Z0 F600
G0 Z3
G0 X8.846192893401016 Y9.751269035532994
G1 Z-2.3 F600
G1 Z0 F600
G0 Z3
G0 X16.466243654822335 Y7.211421319796954
G1 Z-2.3 F600
G1 Z0 F600
G0 Z3
G0 X8.846192893401016 Y7.211421319796954
G1 Z-2.3 F600
G1 Z0 F600
G0 Z3
G0 X16.466243654822335 Y4.6713197969543145
G1 Z-2.3 F600
G1 Z0 F600
G0 Z3
G0 X8.846192893401016 Y4.6713197969543145
G1 Z-2.3 F600
G1 Z0 F600
G0 Z3
G0 X18.3256345177665 Y17.965736040609137
G1 Z-2.3 F600
G1 Z0 F600
G0 Z3
G0 X15.785532994923859 Y17.965736040609137
G1 Z-2.3 F600
G1 Z0 F600
G0 Z3
G0 X13.245685279187818 Y17.965736040609137
G1 Z-2.3 F600
G1 Z0 F600
G0 Z3
G0 X10.705583756345177 Y17.965736040609137
G1 Z-2.3 F600
G1 Z0 F600
G0 Z3
G0 X26.555837563451778 Y22.860406091370557
G1 Z-2.3 F600
G1 Z0 F600
G0 Z3
G0 X26.555837563451778 Y17.78045685279188
G1 Z-2.3 F600
G1 Z0 F600
G0 Z3
G0 X19.81065989847716 Y37.5502538071066
G1 Z-2.3 F600
G1 Z0 F600
G0 Z3
G0 X24.890609137055836 Y37.5502538071066
G1 Z-2.3 F600
G1 Z0 F600
G0 Z3
G0 X4.6553299492385785 Y9.793654822335025
G1 Z-2.3 F600
G1 Z0 F600
G0 Z3
G0 X4.6553299492385785 Y7.253553299492386
G1 Z-2.3 F600
G1 Z0 F600
G0 Z3
G0 X4.6553299492385785 Y4.7137055837563455
G1 Z-2.3 F600
G1 Z0 F600
G0 Z3
G0 X19.50989847715736 Y7.638071065989847
G1 Z-2.3 F600
G1 Z0 F600
G0 Z3
G0 X19.54263959390863 Y4.7137055837563455
G1 Z-2.3 F600
G1 Z0 F600
G0 Z3
G0 X7.406852791878173 Y15.790862944162436
G1 Z-2.3 F600
G1 Z0 F600
G0 Z3
G0 X18.978172588832486 Y12.263197969543148
G1 Z-2.3 F600
G1 Z0 F600
G0 Z3
M5
M30
