(Generated by PartKam Version 0.05)

G21 G90 G40

(profile 1)
G0 Z3
T0 M6
G17
M3
G0 X1.119289340101523 Y15.582994923857868
G1 Z-0.35 F100
G1 X1.119289340101523 Y2.101522842639594 F100
G3 X1.119289340101523 Y2.0761421319796955 I0.7842639593908629 J0.005076142131979696
G1 X1.1218274111675126 Y2.053299492385787
G1 X1.1218274111675126 Y2.032994923857868
G1 X1.1243654822335025 Y2.0076142131979697
G1 X1.1294416243654823 Y1.9847715736040608
G3 X1.131979695431472 Y1.9593908629441625 I0.7766497461928934 J0.11421319796954314
G1 X1.1370558375634519 Y1.934010152284264
G1 X1.1421319796954315 Y1.916243654822335
G1 X1.1446700507614214 Y1.9035532994923856
G1 X1.1497461928934012 Y1.8832487309644668
G3 X1.1573604060913705 Y1.8578680203045685 I0.7563451776649746 J0.20558375634517764
G1 X1.1649746192893402 Y1.8375634517766497
G1 X1.1725888324873095 Y1.8223350253807107
G1 X1.1776649746192893 Y1.8071065989847714
G1 X1.1852791878172588 Y1.7868020304568528
G1 X1.1954314720812182 Y1.7690355329949239
G1 X1.2030456852791878 Y1.7538071065989846
G1 X1.2106598984771573 Y1.736040609137056
G3 X1.2233502538071066 Y1.7131979695431472 I0.6954314720812182 J0.3629441624365482
G3 X1.236040609137056 Y1.6903553299492384 I0.6725888324873096 J0.40609137055837563
G1 X1.248730964467005 Y1.6725888324873097
G3 X1.2639593908629443 Y1.649746192893401 I0.6649746192893401 J0.416243654822335
G1 X1.2766497461928932 Y1.6319796954314723
G1 X1.2868020304568528 Y1.619289340101523
G1 X1.2994923857868022 Y1.6040609137055837
G1 X1.3121827411167515 Y1.5888324873096447
G3 X1.3401015228426396 Y1.5583756345177666 I0.5939086294416244 J0.5152284263959391
G3 X1.368020304568528 Y1.5304568527918783 I0.565989847715736 J0.5456852791878173
G3 X1.3959390862944163 Y1.5050761421319798 I0.5355329949238579 J0.5736040609137056
G3 X1.4263959390862944 Y1.4796954314720812 I0.5076142131979695 J0.5989847715736041
G1 X1.4416243654822336 Y1.469543147208122
G1 X1.4568527918781726 Y1.4593908629441623
G1 X1.4720812182741116 Y1.4467005076142132
G1 X1.4923857868020305 Y1.434010152284264
G1 X1.5101522842639594 Y1.4263959390862944
G1 X1.5253807106598984 Y1.4162436548223352
G3 X1.5685279187817258 Y1.3934010152284264 I0.3781725888324873 J0.6878172588832487
G3 X1.6116751269035534 Y1.3756345177664975 I0.3350253807106599 J0.7106598984771574
G3 X1.649746192893401 Y1.3629441624365481 I0.29441624365482233 J0.7284263959390863
G3 X1.6852791878172588 Y1.3502538071065988 I0.2563451776649746 J0.7411167512690355
G3 X1.7182741116751268 Y1.3426395939086295 I0.22081218274111675 J0.7538071065989848
G3 X1.7461928934010151 Y1.3350253807106598 I0.18781725888324874 J0.7614213197969544
G1 X1.763959390862944 Y1.33248730964467
G1 X1.784263959390863 Y1.3274111675126905
G1 X1.8071065989847714 Y1.3248730964467004
G1 X1.8223350253807107 Y1.3223350253807107
G3 X1.8629441624365481 Y1.3197969543147208 I0.08883248730964467 J0.7791878172588833
G3 X1.9035532994923856 Y1.3172588832487309 I0.04822335025380711 J0.7842639593908629
G1 X11.104060913705585 Y1.3172588832487309
G3 X11.299492385786802 Y1.296954314720812 I0.1802030456852792 J0.7639593908629441
G3 X11.515228426395938 Y1.33248730964467 I-0.015228426395939087 J0.7842639593908629
G3 X11.713197969543147 Y1.4263959390862944 I-0.23096446700507614 J0.748730964467005
G3 X11.878172588832488 Y1.5710659898477157 I-0.4314720812182741 J0.6548223350253807
G3 X11.99746192893401 Y1.7563451776649748 I-0.5964467005076142 J0.5101522842639594
G3 X12.058375634517766 Y1.9619289340101522 I-0.7131979695431472 J0.32487309644670054
G1 X12.063451776649746 Y1.982233502538071
G1 X12.065989847715738 Y2.00253807106599
G1 X13.19289340101523 Y10.728426395939085
G1 X14.30964467005076 Y16.083756345177665
G3 X14.329949238578681 Y16.238578680203048 I-0.766497461928934 J0.17258883248730966
G1 X14.329949238578681 Y16.256345177664976
G1 X14.329949238578681 Y16.256345177664976
G3 X14.49746192893401 Y16.375634517766496 I-0.5812182741116751 J1.015228426395939
G3 X14.723350253807105 Y16.624365482233504 I-0.7538071065989848 J0.9086294416243655
G3 X14.873096446700506 Y16.934010152284266 I-0.967005076142132 J0.6522842639593909
G3 X14.923857868020304 Y17.274111675126903 I-1.1040609137055837 J0.3375634517766497
G3 X14.888324873096446 Y17.548223350253807 I-1.1421319796954315 J0
G3 X14.789340101522843 Y17.807106598984774 I-1.114213197969543 J-0.2766497461928934
G3 X14.639593908629443 Y18.027918781725887 I-1.0380710659898478 J-0.5456852791878173
G3 X14.543147208121827 Y18.126903553299492 I-0.9086294416243655 J-0.7842639593908629
G1 X14.548223350253807 Y18.14720812182741
G3 X14.565989847715738 Y18.299492385786802 I-0.766497461928934 J0.16751269035532995
G1 X14.593908629441625 Y19.461928934010153
G3 X14.593908629441625 Y19.48730964467005 I-0.7842639593908629 J0.025380710659898477
G3 X14.581218274111675 Y19.629441624365484 I-0.7842639593908629 J0
G3 X14.571065989847716 Y19.67766497461929 I-0.7715736040609138 J-0.14213197969543148
G1 X14.581218274111675 Y19.68781725888325
G3 X14.626903553299492 Y19.67766497461929 I0.1903553299492386 J0.7614213197969544
G3 X14.79695431472081 Y19.66497461928934 I0.1446700507614213 J0.7715736040609138
G1 X17.553299492385786 Y19.736040609137056
G3 X17.720812182741117 Y19.758883248730964 I-0.015228426395939087 J0.7842639593908629
G3 X17.758883248730967 Y19.769035532994923 I-0.18527918781725888 J0.7639593908629441
G3 X17.83502538071066 Y19.70304568527919 I0.7563451776649746 J0.8096446700507615
G3 X18.0253807106599 Y19.583756345177665 I0.6548223350253807 J0.8426395939086294
G3 X18.246192893401016 Y19.50761421319797 I0.45431472081218277 J0.9390862944162437
G3 X18.47969543147208 Y19.47969543147208 I0.23096446700507614 J1.0076142131979695
G3 X18.62944162436548 Y19.492385786802032 I0 J1.0279187817258884
G3 X18.779187817258883 Y19.5253807106599 I-0.15228426395939088 J1.0279187817258884
G3 X18.913705583756347 Y19.576142131979694 I-0.3071065989847716 J1.012690355329949
G1 X18.934010152284266 Y19.586294416243653
G3 X18.967005076142133 Y19.565989847715738 I0.4314720812182741 J0.6548223350253807
G3 X19.11928934010152 Y19.49492385786802 I0.3984771573604061 J0.6751269035532994
G1 X24.903553299492387 Y17.517766497461928
G3 X24.95431472081218 Y17.299492385786802 I1.5913705583756346 J0.25888324873096447
G3 X25.088832487309645 Y16.98477157360406 I1.5736040609137056 J0.4873096446700508
G3 X25.274111675126903 Y16.715736040609137 I1.4771573604060915 J0.8223350253807106
G3 X25.42639593908629 Y16.555837563451774 I1.3426395939086295 J1.134517766497462
G1 X23.03553299492386 Y7.370558375634517
G1 X20.124365482233504 Y5.888324873096447
G3 X19.98984771573604 Y5.807106598984771 I0.3401015228426396 J-0.7055837563451777
G3 X19.964467005076145 Y5.794416243654822 I0.3299492385786802 J-0.7106598984771574
G3 X19.82994923857868 Y5.84010152284264 I-0.4365482233502538 J-1.0761421319796955
G3 X19.68781725888325 Y5.870558375634518 I-0.2918781725888325 J-1.0837563451776648
G3 X19.543147208121827 Y5.880710659898477 I-0.1446700507614213 J-1.0786802030456852
G3 X19.274111675126903 Y5.84771573604061 I0 J-1.1395939086294418
G3 X19.02030456852792 Y5.753807106598985 I0.2690355329949239 J-1.114213197969543
G3 X18.804568527918782 Y5.609137055837563 I0.5355329949238579 J-1.0431472081218274
G3 X18.67766497461929 Y5.4873096446700504 I0.7741116751269035 J-0.9238578680203046
G1 X17.258883248730964 Y5.467005076142132
G3 X17.14213197969543 Y5.568527918781726 I-0.8401015228426396 J-0.8451776649746192
G3 X16.941624365482234 Y5.690355329949238 I-0.6903553299492386 J-0.9060913705583756
G3 X16.710659898477157 Y5.771573604060913 I-0.47715736040609136 J-1
G3 X16.467005076142133 Y5.799492385786802 I-0.2436548223350254 J-1.0710659898477157
G3 X16.038071065989847 Y5.713197969543147 I0 J-1.116751269035533
G3 X15.670050761421319 Y5.467005076142132 I0.4365482233502538 J-1.0482233502538072
G3 X15.423857868020306 Y5.101522842639595 I0.8045685279187818 J-0.8045685279187818
G3 X15.34010152284264 Y4.67005076142132 I1.0304568527918783 J-0.4289340101522843
G1 X15.34010152284264 Y4.67005076142132
G3 X15.423857868020306 Y4.241116751269035 I1.116751269035533 J0
G3 X15.670050761421319 Y3.8756345177664975 I1.0482233502538072 J0.4365482233502538
G3 X16.038071065989847 Y3.629441624365482 I0.8020304568527918 J0.8045685279187818
G3 X16.467005076142133 Y3.5431472081218276 I0.4289340101522843 J1.032994923857868
G3 X16.718274111675125 Y3.5736040609137056 I0 J1.0964467005076142
G3 X16.95431472081218 Y3.659898477157361 I-0.25380710659898476 J1.0761421319796955
G3 X17.15989847715736 Y3.7893401015228427 I-0.5025380710659898 J1.015228426395939
G3 X17.279187817258883 Y3.8984771573604062 I-0.7335025380710659 J0.9187817258883249
G1 X18.700507614213198 Y3.918781725888325
G3 X18.82233502538071 Y3.8045685279187818 I0.8857868020304569 J0.83248730964467
G3 X19.03553299492386 Y3.66751269035533 I0.7360406091370558 J0.9137055837563451
G3 X19.28172588832487 Y3.5786802030456855 I0.5101522842639594 J1.0228426395939085
G3 X19.543147208121827 Y3.548223350253807 I0.2614213197969543 J1.1040609137055837
G3 X19.951776649746193 Y3.6218274111675126 I0 J1.1472081218274113
G3 X20.307106598984774 Y3.83756345177665 I-0.4137055837563452 J1.0862944162436547
G3 X20.563451776649746 Y4.162436548223351 I-0.7817258883248732 J0.883248730964467
G3 X20.66751269035533 Y4.4238578680203045 I-1.0279187817258884 J0.5558375634517766
G1 X20.68781725888325 Y4.431472081218274
G3 X20.83248730964467 Y4.48984771573604 I-0.2233502538071066 J0.751269035532995
G1 X24.058375634517766 Y6.129441624365483
G3 X24.22335025380711 Y6.238578680203045 I-0.3451776649746193 J0.7055837563451777
G3 X24.355329949238577 Y6.383248730964467 I-0.5101522842639594 J0.5964467005076142
G3 X24.44670050761421 Y6.555837563451776 I-0.6421319796954316 J0.45177664974619286
G3 X24.48984771573604 Y6.733502538071066 I-0.7335025380710659 J0.27918781725888325
G1 X26.941624365482234 Y16.15228426395939
G3 X27.375634517766496 Y16.3248730964467 I-0.3883248730964467 J1.6167512690355328
G3 X27.827411167512693 Y16.695431472081218 I-0.8401015228426396 J1.4796954314720812
G3 X28.126903553299492 Y17.20304568527919 I-1.2766497461928932 J1.0964467005076142
G3 X28.230964467005077 Y17.78172588832487 I-1.5456852791878173 J0.5761421319796954
G3 X28.10406091370558 Y18.418781725888323 I-1.6548223350253808 J0
G3 X27.738578680203045 Y18.961928934010153 I-1.5609137055837563 J-0.6522842639593909
G3 X27.192893401015226 Y19.327411167512693 I-1.1979695431472082 J-1.1979695431472082
G3 X26.555837563451774 Y19.45431472081218 I-0.6370558375634517 J-1.5279187817258881
G3 X26.210659898477154 Y19.418781725888326 I0 J-1.634517766497462
G3 X25.878172588832488 Y19.309644670050762 I0.3477157360406091 J-1.6065989847715736
G3 X25.588832487309645 Y19.14213197969543 I0.6928934010152283 J-1.5304568527918783
G3 X25.416243654822335 Y19 I1.015228426395939 J-1.4086294416243654
G1 X19.629441624365484 Y20.97969543147208
G3 X19.477157360406093 Y21.017766497461928 I-0.26649746192893403 J-0.7385786802030457
G3 X19.441624365482234 Y21.022842639593907 I-0.11421319796954314 J-0.7766497461928934
G3 X19.3248730964467 Y21.195431472081218 I-1.0431472081218274 J-0.5786802030456852
G3 X19.093908629441625 Y21.411167512690355 I-0.8908629441624366 J-0.7208121827411168
G3 X18.799492385786802 Y21.558375634517766 I-0.6294416243654822 J-0.8934010152284264
G3 X18.47969543147208 Y21.60913705583756 I-0.3197969543147208 J-0.9949238578680203
G3 X18.23350253807107 Y21.578680203045685 I0 J-1.0380710659898478
G3 X18.00253807106599 Y21.49238578680203 I0.24619289340101522 J-1.017766497461929
G3 X17.804568527918782 Y21.360406091370557 I0.48984771573604063 J-0.9517766497461928
G3 X17.720812182741117 Y21.284263959390863 I0.7081218274111676 J-0.8451776649746192
G3 X17.682741116751266 Y21.29187817258883 I-0.18274111675126906 J-0.7639593908629441
G3 X17.51269035532995 Y21.304568527918782 I-0.1446700507614213 J-0.7715736040609138
G1 X14.756345177664976 Y21.23350253807107
G3 X14.588832487309645 Y21.213197969543145 I0.015228426395939087 J-0.7842639593908629
G3 X14.540609137055839 Y21.200507614213198 I0.18527918781725888 J-0.7614213197969544
G1 X14.464467005076143 Y21.26649746192893
G1 X13.756345177664976 Y24.883248730964468
G3 X13.809644670050762 Y24.96954314720812 I-0.967005076142132 J0.6598984771573604
G3 X13.885786802030458 Y25.13197969543147 I-0.9695431472081218 J0.5456852791878173
G3 X13.934010152284264 Y25.314720812182742 I-1.0203045685279188 J0.3730964467005076
G3 X13.949238578680204 Y25.50253807106599 I-1.0583756345177666 J0.18781725888324874
G3 X13.865482233502537 Y25.928934010152282 I-1.1040609137055837 J0
G3 X13.621827411167512 Y26.29187817258883 I-1.0380710659898478 J-0.4314720812182741
G3 X13.261421319796954 Y26.53299492385787 I-0.7944162436548223 J-0.7944162436548223
G3 X12.835025380710661 Y26.619289340101524 I-0.42385786802030456 J-1.017766497461929
G3 X12.411167512690355 Y26.53299492385787 I0 J-1.1040609137055837
G3 X12.048223350253807 Y26.29187817258883 I0.4314720812182741 J-1.0380710659898478
G3 X11.804568527918782 Y25.928934010152282 I0.7944162436548223 J-0.7944162436548223
G3 X11.720812182741117 Y25.50253807106599 I1.017766497461929 J-0.42385786802030456
G3 X11.761421319796954 Y25.21065989847716 I1.0888324873096447 J0
G3 X11.878172588832488 Y24.939086294416242 I1.0583756345177666 J0.2969543147208122
G3 X12.055837563451776 Y24.71319796954315 I0.9644670050761421 J0.583756345177665
G3 X12.215736040609137 Y24.583756345177665 I0.8020304568527918 J0.8223350253807106
G1 X12.921319796954315 Y20.98984771573604
G3 X12.875634517766496 Y20.898477157360404 I1.3604060913705585 J-0.7411167512690355
G3 X12.819796954314722 Y20.756345177664976 I1.119289340101523 J-0.5177664974619289
G3 X12.779187817258883 Y20.588832487309645 I1.0786802030456852 J-0.3451776649746193
G3 X12.766497461928934 Y20.42639593908629 I1.0279187817258884 J-0.1649746192893401
G3 X12.794416243654823 Y20.19289340101523 I1.0355329949238579 J0
G3 X12.870558375634518 Y19.972081218274113 I1.017766497461929 J0.23350253807106597
G3 X12.98984771573604 Y19.78172588832487 I0.9619289340101522 J0.46700507614213194
G3 X13.055837563451778 Y19.705583756345177 I0.8756345177664975 J0.6802030456852792
G3 X13.045685279187818 Y19.66751269035533 I0.7538071065989848 J-0.2182741116751269
G3 X13.025380710659899 Y19.5 I0.7639593908629441 J-0.1802030456852792
G1 X12.997461928934012 Y18.34010152284264
G3 X12.997461928934012 Y18.31218274111675 I0.7842639593908629 J-0.027918781725888325
G3 X13.007614213197968 Y18.185279187817258 I0.7842639593908629 J0
G1 X13.010152284263958 Y18.16497461928934
G3 X12.898477157360407 Y18.058375634517766 I0.7614213197969544 J-0.9086294416243655
G3 X12.736040609137056 Y17.829949238578678 I0.8629441624365481 J-0.7969543147208122
G3 X12.626903553299494 Y17.560913705583758 I1.0101522842639594 J-0.5583756345177665
G3 X12.591370558375633 Y17.274111675126903 I1.116751269035533 J-0.2893401015228426
G3 X12.614213197969544 Y17.050761421319798 I1.1395939086294418 J0
G3 X12.67766497461929 Y16.83502538071066 I1.1243654822335025 J0.2233502538071066
G3 X12.776649746192895 Y16.64720812182741 I1.0786802030456852 J0.4467005076142132
G3 X12.82741116751269 Y16.576142131979697 I1.0101522842639594 J0.6548223350253807
G1 X12.819796954314722 Y16.555837563451774
G3 X12.774111675126905 Y16.408629441624363 I0.7233502538071066 J-0.3020304568527919
G1 X11.654822335025381 Y11.040609137055837
G3 X11.647208121827411 Y11.00761421319797 I0.7614213197969544 J-0.18527918781725888
G3 X11.642131979695431 Y10.98223350253807 I0.7690355329949239 J-0.15482233502538073
G3 X11.637055837563452 Y10.939086294416242 I0.7715736040609138 J-0.14720812182741116
G3 X11.631979695431472 Y10.906091370558375 I0.7766497461928934 J-0.10406091370558375
G1 X10.598984771573603 Y2.8883248730964466
G1 X2.687817258883249 Y2.8883248730964466
G1 X2.687817258883249 Y15.269035532994923
G1 X6.583756345177665 Y19.428934010152282
G3 X6.68274111675127 Y19.532994923857867 I-0.5203045685279188 J0.5888324873096447
G3 X6.761421319796954 Y19.65989847715736 I-0.616751269035533 J0.4847715736040609
G3 X6.819796954314721 Y19.79695431472081 I-0.6903553299492386 J0.37055837563451777
G3 X6.850253807106599 Y19.934010152284266 I-0.748730964467005 J0.23350253807106597
G1 X8.621827411167512 Y27.769035532994923
G1 X12.36040609137056 Y31.99746192893401
G3 X12.454314720812183 Y32.1243654822335 I-0.5812182741116751 J0.5253807106598986
G1 X12.482233502538072 Y32.12690355329949
G1 X12.5 Y32.12690355329949
G3 X12.964467005076141 Y32.21827411167513 I0 J1.2055837563451777
G3 X13.357868020304569 Y32.48477157360406 I-0.46954314720812185 J1.1294416243654823
G3 X13.624365482233502 Y32.878172588832484 I-0.8654822335025381 J0.8654822335025381
G3 X13.715736040609137 Y33.34263959390863 I-1.114213197969543 J0.46446700507614214
G3 X13.624365482233502 Y33.807106598984774 I-1.2081218274111676 J0
G3 X13.360406091370558 Y34.200507614213194 I-1.131979695431472 J-0.46954314720812185
G3 X12.964467005076141 Y34.46700507614213 I-0.8654822335025381 J-0.8654822335025381
G3 X12.5 Y34.558375634517766 I-0.46446700507614214 J-1.1116751269035532
G3 X12.038071065989849 Y34.46700507614213 I0 J-1.2055837563451777
G3 X11.642131979695431 Y34.200507614213194 I0.47208121827411165 J-1.131979695431472
G3 X11.375634517766498 Y33.807106598984774 I0.868020304568528 J-0.8654822335025381
G3 X11.284263959390863 Y33.34263959390863 I1.114213197969543 J-0.46446700507614214
G3 X11.286802030456853 Y33.31725888324873 I0.17512690355329952 J0
G1 X11.309644670050762 Y33.15482233502538
G1 X11.294416243654823 Y33.14213197969543
G3 X11.185279187817258 Y33.04060913705584 I0.4847715736040609 J-0.616751269035533
G1 X7.365482233502538 Y28.718274111675125
G3 X7.2944162436548226 Y28.639593908629443 I0.5380710659898478 J-0.5710659898477157
G3 X7.230964467005077 Y28.550761421319798 I0.6091370558375635 J-0.49492385786802034
G3 X7.147208121827411 Y28.373096446700508 I0.6573604060913706 J-0.42639593908629436
G3 X7.1091370558375635 Y28.19289340101523 I0.7436548223350253 J-0.24873096446700507
G1 X5.347715736040609 Y20.403553299492387
G1 X1.3959390862944163 Y16.185279187817258
G3 X1.2842639593908631 Y16.065989847715734 I0.5076142131979695 J-0.5989847715736041
G3 X1.1928934010152283 Y15.916243654822335 I0.6218274111675127 J-0.47969543147208127
G3 X1.1370558375634519 Y15.751269035532996 I0.7106598984771574 J-0.3299492385786802
G3 X1.119289340101523 Y15.586294416243655 I0.766497461928934 J-0.1649746192893401
G1 X1.119289340101523 Y15.583756345177664
G0 Z3
G0 X5.332994923857868 Y33.263451776649745
G1 Z-0.35 F200
G1 X3.8147208121827414 Y25.307106598984774 F100
G3 X3.799492385786802 Y25.149746192893403 I0.7690355329949239 J-0.15736040609137056
G1 X3.799492385786802 Y25.14720812182741
G3 X3.799492385786802 Y25.119289340101524 I0.7842639593908629 J0.002538071065989848
G3 X3.652284263959391 Y25.00761421319797 I0.6116751269035533 J-0.9746192893401016
G3 X3.449238578680203 Y24.774111675126903 I0.7538071065989848 J-0.8578680203045685
G3 X3.314720812182741 Y24.48223350253807 I0.9365482233502538 J-0.6091370558375635
G3 X3.269035532994924 Y24.16751269035533 I1.0609137055837563 J-0.3147208121827411
G3 X3.352791878172589 Y23.738578680203048 I1.116751269035533 J0
G3 X3.598984771573604 Y23.370558375634516 I1.050761421319797 J0.4365482233502538
G3 X3.967005076142132 Y23.1243654822335 I0.8045685279187818 J0.8045685279187818
G3 X4.395939086294416 Y23.038071065989847 I0.4289340101522843 J1.0304568527918783
G3 X4.824873096446701 Y23.1243654822335 I0 J1.116751269035533
G3 X5.192893401015228 Y23.370558375634516 I-0.4365482233502538 J1.0482233502538072
G3 X5.436548223350254 Y23.738578680203048 I-0.8045685279187818 J0.8045685279187818
G3 X5.522842639593909 Y24.16751269035533 I-1.0304568527918783 J0.4289340101522843
G3 X5.50253807106599 Y24.380710659898476 I-1.098984771573604 J0
G3 X5.441624365482234 Y24.586294416243657 I-1.0862944162436547 J-0.21573604060913704
G3 X5.34517766497462 Y24.766497461928935 I-1.0431472081218274 J-0.4289340101522843
G3 X5.2994923857868015 Y24.83248730964467 I-0.9822335025380711 J-0.6319796954314721
G3 X5.312182741116751 Y24.85786802030457 I-0.7182741116751269 J0.31725888324873097
G3 X5.355329949238579 Y25.01015228426396 I-0.7284263959390863 J0.29441624365482233
G1 X6.8578680203045685 Y32.88832487309645
G1 X9.17005076142132 Y37.53045685279188
G1 X11.284263959390863 Y37.598984771573605
G1 X11.284263959390863 Y37.380710659898476
G3 X11.459390862944163 Y37.20558375634518 I0.17512690355329952 J0
G1 X13.540609137055837 Y37.20558375634518
G3 X13.715736040609137 Y37.380710659898476 I0 J0.17512690355329952
G1 X13.715736040609137 Y39.46446700507614
G3 X13.540609137055837 Y39.63959390862944 I-0.17512690355329952 J0
G1 X11.713197969543147 Y39.63959390862944
G1 X11.459390862944163 Y39.63959390862944
G3 X11.284263959390863 Y39.46446700507614 I0 J-0.17512690355329952
G1 X11.284263959390863 Y39.16751269035533
G1 X8.763959390862944 Y39.08629441624365
G3 X8.708121827411167 Y39.088832487309645 I-0.08629441624365483 J-0.7791878172588833
G3 X8.639593908629442 Y39.088832487309645 I-0.03299492385786802 J-0.7842639593908629
G3 X8.50507614213198 Y39.07106598984772 I0.043147208121827416 J-0.7842639593908629
G3 X8.385786802030458 Y39.03299492385787 I0.17766497461928935 J-0.7639593908629441
G3 X8.215736040609137 Y38.944162436548226 I0.27411167512690354 J-0.7360406091370558
G3 X8.073604060913706 Y38.819796954314725 I0.44416243654822335 J-0.6472081218274112
G3 X7.967005076142132 Y38.66243654822335 I0.5862944162436547 J-0.5228426395939086
G3 X7.903553299492386 Y38.50507614213198 I0.6928934010152283 J-0.3654822335025381
G1 X5.436548223350254 Y33.55329949238579
G3 X5.3883248730964475 Y33.45939086294416 I0.6725888324873096 J-0.4035532994923858
G3 X5.352791878172589 Y33.3502538071066 I0.7233502538071066 J-0.3071065989847716
G3 X5.340101522842639 Y33.30456852791878 I0.7563451776649746 J-0.2081218274111675
G3 X5.33248730964467 Y33.263959390862944 I0.7690355329949239 J-0.1598984771573604
G0 Z3
G0 X27.16979695431472 Y29.96954314720812
G1 Z-0.35 F200
G1 X25.941624365482234 Y36.253807106598984 F100
G3 X26.14467005076142 Y36.44670050761421 I-1.0837563451776648 J1.33248730964467
G3 X26.370558375634516 Y36.76903553299492 I-1.266497461928934 J1.1218274111675126
G3 X26.51522842639594 Y37.1497461928934 I-1.4619289340101524 J0.7842639593908629
G3 X26.565989847715734 Y37.5507614213198 I-1.5939086294416245 J0.4010152284263959
G3 X26.439086294416242 Y38.18781725888325 I-1.6548223350253808 J0
G3 X26.073604060913706 Y38.733502538071065 I-1.5609137055837563 J-0.6522842639593909
G3 X25.527918781725887 Y39.098984771573605 I-1.1979695431472082 J-1.1979695431472082
G3 X24.890862944162436 Y39.2258883248731 I-0.6370558375634517 J-1.5279187817258881
G3 X24.253807106598984 Y39.098984771573605 I0 J-1.6548223350253808
G3 X23.70812182741117 Y38.733502538071065 I0.6522842639593909 J-1.5609137055837563
G3 X23.34263959390863 Y38.18781725888325 I1.1954314720812182 J-1.1954314720812182
G3 X23.215736040609137 Y37.5507614213198 I1.5279187817258881 J-0.6370558375634517
G1 X23.215736040609137 Y37.5507614213198
G1 X23.215736040609137 Y37.5507614213198
G3 X23.31218274111675 Y36.99746192893401 I1.652284263959391 J0
G3 X23.588832487309645 Y36.50253807106599 I1.5837563451776648 J0.5634517766497462
G3 X24.005076142131976 Y36.13197969543147 I1.3248730964467004 J1.0710659898477157
G3 X24.403553299492383 Y35.9492385786802 I0.8883248730964467 J1.4111675126903553
G1 X25.573604060913702 Y29.956852791878173
G3 X25.418781725888326 Y29.784263959390863 I0.020304568527918784 J-0.17512690355329952
G1 X25.418781725888326 Y28.96954314720812
G1 X25.395939086294415 Y28.761421319796952
G1 X25.393401015228427 Y28.741116751269033
G1 X25.395939086294415 Y28.720812182741117
G1 X25.418781725888326 Y28.51269035532995
G1 X25.418781725888326 Y27.700507614213198
G3 X25.593908629441625 Y27.5253807106599 I0.17512690355329952 J0
G1 X25.814720812182742 Y27.5253807106599
G1 X25.786802030456855 Y24.53553299492386
G1 X25.055837563451778 Y24.53553299492386
G3 X24.880710659898476 Y24.360406091370557 I0 J-0.17512690355329952
G1 X24.880710659898476 Y24.261421319796955
G1 X19.629441624365484 Y26.060913705583758
G3 X19.51522842639594 Y26.091370558375637 I-0.2639593908629442 J-0.7385786802030457
G3 X19.423857868020306 Y26.104060913705585 I-0.15228426395939088 J-0.7690355329949239
G3 X19.31979695431472 Y26.26649746192893 I-0.9593908629441625 J-0.4873096446700508
G3 X19.091370558375637 Y26.48984771573604 I-0.8578680203045685 J-0.6522842639593909
G3 X18.799492385786802 Y26.63705583756345 I-0.616751269035533 J-0.8578680203045685
G3 X18.47969543147208 Y26.68781725888325 I-0.3223350253807106 J-0.9949238578680203
G3 X18.449238578680202 Y26.685279187817258 I0 J-0.17512690355329952
G1 X18.276649746192895 Y26.65482233502538
G3 X18.241116751269036 Y26.69289340101523 I-0.583756345177665 J-0.5228426395939086
G3 X18.109137055837564 Y26.796954314720814 I-0.5507614213197969 J-0.5609137055837563
G1 X13.784263959390863 Y29.581218274111674
G3 X13.555837563451776 Y29.72081218274112 I-0.5177664974619289 J-0.5913705583756345
G3 X13.274111675126903 Y29.77664974619289 I-0.2868020304568528 J-0.7309644670050762
G3 X13.225888324873097 Y29.774111675126903 I0 J-0.7842639593908629
G3 X13.185279187817258 Y29.77157360406091 I0.045685279187817264 J-0.7842639593908629
G3 X13.025380710659899 Y29.738578680203048 I0.07106598984771574 J-0.7817258883248732
G3 X12.875634517766496 Y29.6751269035533 I0.23096446700507614 J-0.751269035532995
G3 X12.743654822335024 Y29.583756345177665 I0.3781725888324873 J-0.6878172588832487
G3 X12.642131979695431 Y29.47715736040609 I0.5126903553299492 J-0.5939086294416244
G1 X11.743654822335026 Y28.64467005076142
G3 X11.644670050761421 Y28.532994923857867 I0.5355329949238579 J-0.5736040609137056
G1 X11.63451776649746 Y28.517766497461928
G1 X11.583756345177665 Y28.522842639593907
G1 X11.565989847715736 Y28.522842639593907
G3 X11.139593908629442 Y28.439086294416246 I0 J-1.1040609137055837
G3 X10.779187817258883 Y28.19543147208122 I0.4314720812182741 J-1.0380710659898478
G3 X10.535532994923857 Y27.83248730964467 I0.7944162436548223 J-0.7944162436548223
G3 X10.449238578680202 Y27.408629441624367 I1.017766497461929 J-0.42385786802030456
G3 X10.535532994923857 Y26.98477157360406 I1.1040609137055837 J0
G3 X10.779187817258883 Y26.621827411167512 I1.0380710659898478 J0.4314720812182741
G3 X11.139593908629442 Y26.378172588832488 I0.7944162436548223 J0.7944162436548223
G3 X11.565989847715736 Y26.294416243654823 I0.42385786802030456 J1.017766497461929
G3 X11.989847715736042 Y26.378172588832488 I0 J1.1040609137055837
G3 X12.352791878172589 Y26.621827411167512 I-0.4314720812182741 J1.0380710659898478
G3 X12.593908629441623 Y26.98477157360406 I-0.7944162436548223 J0.7944162436548223
G3 X12.680203045685278 Y27.395939086294415 I-1.017766497461929 J0.42385786802030456
G1 X12.690355329949238 Y27.403553299492387
G3 X12.809644670050762 Y27.49492385786802 I-0.4137055837563452 J0.6675126903553299
G1 X13.350253807106597 Y27.99492385786802
G1 X17.256345177664976 Y25.47969543147208
G3 X17.408629441624367 Y25.4010152284264 I0.434010152284264 J0.6548223350253807
G3 X17.446700507614214 Y25.385786802030456 I0.2817258883248731 J0.7309644670050762
G3 X17.535532994923855 Y25.14213197969543 I1.0380710659898478 J0.23857868020304568
G3 X17.769035532994923 Y24.837563451776653 I0.9593908629441625 J0.4873096446700508
G3 X18.098984771573605 Y24.631979695431472 I0.7157360406091371 J0.7842639593908629
G3 X18.47969543147208 Y24.560913705583758 I0.3807106598984772 J0.9746192893401016
G3 X18.62944162436548 Y24.571065989847718 I0 J1.0253807106598984
G3 X18.779187817258883 Y24.604060913705585 I-0.15228426395939088 J1.0253807106598984
G3 X18.913705583756347 Y24.65736040609137 I-0.30964467005076146 J1.012690355329949
G1 X18.934010152284266 Y24.664974619289342
G3 X18.967005076142133 Y24.64467005076142 I0.4314720812182741 J0.6548223350253807
G3 X19.11928934010152 Y24.576142131979694 I0.3984771573604061 J0.6751269035532994
G1 X24.880710659898476 Y22.604060913705585
G1 X24.880710659898476 Y21.360406091370557
G3 X25.055837563451778 Y21.18527918781726 I0.17512690355329952 J0
G1 X28.055837563451774 Y21.18527918781726
G3 X28.230964467005077 Y21.360406091370557 I0 J0.17512690355329952
G1 X28.230964467005077 Y23.860406091370557
G1 X28.230964467005077 Y24.360406091370557
G3 X28.055837563451774 Y24.53553299492386 I-0.17512690355329952 J0
G1 X27.35532994923858 Y24.53553299492386
G1 X27.383248730964468 Y27.5253807106599
G1 X27.67766497461929 Y27.5253807106599
G3 X27.85279187817259 Y27.700507614213198 I0 J0.17512690355329952
G1 X27.85279187817259 Y29.527918781725887
G1 X27.85279187817259 Y29.784263959390863
G3 X27.67766497461929 Y29.959390862944165 I-0.17512690355329952 J0
G1 X27.172588832487307 Y29.959390862944165
G1 X27.170050761421322 Y29.96954314720812
G0 Z3
G0 X19.918274111675128 Y29.76751269035533
G1 Z-0.35 F200
G1 X20.451776649746193 Y35.8756345177665 F100
G1 X21.30964467005076 Y35.8756345177665
G3 X21.484771573604064 Y36.0507614213198 I0 J0.17512690355329952
G1 X21.484771573604064 Y39.0507614213198
G3 X21.30964467005076 Y39.2258883248731 I-0.17512690355329952 J0
G1 X18.809644670050762 Y39.2258883248731
G1 X18.309644670050762 Y39.2258883248731
G3 X18.13705583756345 Y39.0507614213198 I0 J-0.17512690355329952
G1 X18.13705583756345 Y37.67005076142132
G1 X16.053299492385786 Y36.75126903553299
G1 X13.581218274111675 Y36.692893401015226
G3 X13.426395939086294 Y36.6751269035533 I0.010152284263959392 J-0.7842639593908629
G3 X13.309644670050762 Y36.786802030456855 I-0.9137055837563451 J-0.83248730964467
G3 X13.073604060913706 Y36.954314720812185 I-0.8197969543147209 J-0.9111675126903553
G3 X12.796954314720812 Y37.06345177664974 I-0.5736040609137056 J-1.0609137055837563
G3 X12.5 Y37.098984771573605 I-0.2969543147208122 J-1.16751269035533
G3 X12.038071065989849 Y37.00761421319797 I0 J-1.2055837563451777
G3 X11.642131979695431 Y36.74111675126903 I0.46954314720812185 J-1.131979695431472
G3 X11.375634517766498 Y36.34771573604061 I0.8654822335025381 J-0.8654822335025381
G3 X11.284263959390863 Y35.88324873096447 I1.114213197969543 J-0.46446700507614214
G3 X11.375634517766498 Y35.41878172588832 I1.2055837563451777 J0
G3 X11.642131979695431 Y35.022842639593904 I1.131979695431472 J0.47208121827411165
G3 X12.038071065989849 Y34.75888324873096 I0.8654822335025381 J0.8654822335025381
G3 X12.5 Y34.66497461928934 I0.46446700507614214 J1.1116751269035532
G3 X12.809644670050762 Y34.70812182741117 I0 J1.1954314720812182
G3 X13.098984771573603 Y34.82741116751269 I-0.30964467005076146 J1.1598984771573604
G3 X13.337563451776651 Y35.00761421319797 I-0.6116751269035533 J1.0634517766497462
G3 X13.454314720812183 Y35.13451776649746 I-0.868020304568528 J0.8984771573604061
G1 X13.467005076142131 Y35.13197969543147
G3 X13.616751269035532 Y35.1243654822335 I0.12436548223350254 J0.7741116751269035
G1 X16.17005076142132 Y35.18274111675127
G3 X16.294416243654823 Y35.18527918781726 I0.04822335025380711 J0.7842639593908629
G3 X16.421319796954315 Y35.20812182741117 I-0.07614213197969544 J0.7817258883248732
G3 X16.5253807106599 Y35.24111675126904 I-0.18527918781725888 J0.7614213197969544
G3 X16.614213197969544 Y35.28172588832487 I-0.2893401015228426 J0.7309644670050762
G1 X18.15736040609137 Y35.964467005076145
G3 X18.309644670050762 Y35.8756345177665 I0.15228426395939088 J0.08629441624365483
G1 X18.875634517766496 Y35.8756345177665
G1 X18.35532994923858 Y29.903553299492387
G3 X18.35279187817259 Y29.837563451776653 I0.7817258883248732 J-0.06598984771573604
G3 X18.35786802030457 Y29.746192893401012 I0.7842639593908629 J0
G3 X18.20812182741117 Y29.621827411167516 I0.7309644670050762 J-1.015228426395939
G3 X18.00507614213198 Y29.373096446700508 I0.8401015228426396 J-0.8984771573604061
G3 X17.870558375634516 Y29.068527918781726 I1.017766497461929 J-0.6345177664974619
G3 X17.8248730964467 Y28.741116751269033 I1.1446700507614214 J-0.32741116751269034
G3 X17.916243654822335 Y28.279187817258883 I1.2055837563451777 J0
G3 X18.18274111675127 Y27.883248730964464 I1.131979695431472 J0.47208121827411165
G3 X18.578680203045685 Y27.616751269035532 I0.8654822335025381 J0.868020304568528
G3 X19.04060913705584 Y27.5253807106599 I0.46446700507614214 J1.114213197969543
G3 X19.50507614213198 Y27.616751269035532 I0 J1.2055837563451777
G3 X19.901015228426395 Y27.883248730964464 I-0.46954314720812185 J1.131979695431472
G3 X20.16497461928934 Y28.279187817258883 I-0.8654822335025381 J0.8654822335025381
G3 X20.256345177664976 Y28.741116751269033 I-1.114213197969543 J0.46446700507614214
G3 X20.22335025380711 Y29.017766497461928 I-1.1878172588832487 J0
G3 X20.126903553299492 Y29.28172588832487 I-1.1624365482233503 J-0.27918781725888325
G3 X19.97969543147208 Y29.50507614213198 I-1.0913705583756346 J-0.5558375634517766
G3 X19.888324873096444 Y29.611675126903553 I-1 J-0.7690355329949239
G3 X19.918781725888326 Y29.766497461928935 I-0.751269035532995 J0.22588832487309643
G0 Z3
G0 X22.30482233502538 Y9.939847715736041
G1 Z-0.35 F200
G1 X22.370558375634516 Y14.936548223350254 F100
G3 X22.38578680203046 Y15.081218274111674 I-0.7715736040609138 J0.1446700507614213
G1 X22.383248730964468 Y15.101522842639595
G3 X22.35786802030457 Y15.286802030456851 I-0.7842639593908629 J-0.022842639593908632
G3 X22.286802030456855 Y15.456852791878173 I-0.7563451776649746 J-0.20558375634517764
G3 X22.18274111675127 Y15.604060913705585 I-0.6878172588832487 J-0.3781725888324873
G3 X21.994923857868017 Y15.763959390862945 I-0.5964467005076142 J-0.5101522842639594
G3 X21.78172588832487 Y15.852791878172589 I-0.4086294416243655 J-0.6700507614213198
G1 X17.565989847715734 Y17.596446700507617
G3 X17.418781725888326 Y17.644670050761423 I-0.30964467005076146 J-0.7208121827411168
G1 X17.398477157360407 Y17.64720812182741
G3 X17.286802030456855 Y17.883248730964468 I-1.098984771573604 J-0.3756345177664975
G3 X17.03045685279188 Y18.1751269035533 I-1.0050761421319796 J-0.6218274111675127
G3 X16.685279187817258 Y18.370558375634516 I-0.7385786802030457 J-0.9060913705583756
G3 X16.296954314720814 Y18.439086294416242 I-0.3883248730964467 J-1.0862944162436547
G3 X15.852791878172589 Y18.350253807106597 I0 J-1.1548223350253808
G3 X15.474619289340101 Y18.096446700507613 I0.45177664974619286 J-1.0837563451776648
G3 X15.220812182741117 Y17.71827411167513 I0.8299492385786802 J-0.8299492385786802
G3 X15.131979695431472 Y17.274111675126903 I1.0659898477157361 J-0.44416243654822335
G3 X15.220812182741117 Y16.82994923857868 I1.1573604060913705 J0
G3 X15.474619289340101 Y16.449238578680202 I1.0837563451776648 J0.45177664974619286
G3 X15.852791878172589 Y16.195431472081218 I0.8299492385786802 J0.8299492385786802
G3 X16.296954314720814 Y16.106598984771573 I0.44416243654822335 J1.0659898477157361
G3 X16.46446700507614 Y16.119289340101524 I0 J1.131979695431472
G3 X16.629441624365484 Y16.15736040609137 I-0.1700507614213198 J1.1294416243654823
G3 X16.78172588832487 Y16.215736040609137 I-0.3401015228426396 J1.1116751269035532
G3 X16.812182741116754 Y16.230964467005077 I-0.5101522842639594 J1.0913705583756346
G1 X16.827411167512693 Y16.218274111675125
G3 X16.96446700507614 Y16.14720812182741 I0.4314720812182741 J0.6573604060913706
G1 X20.796954314720814 Y14.563451776649746
G1 X20.743654822335028 Y10.571065989847718
G1 X17.472081218274113 Y10.545685279187818
G3 X17.309644670050762 Y10.530456852791879 I-0.012690355329949238 J-0.7842639593908629
G3 X17.28172588832487 Y10.522842639593907 I0.14974619289340102 J-0.7690355329949239
G3 X17.185279187817258 Y10.614213197969544 I-0.8477157360406091 J-0.8020304568527918
G3 X16.9746192893401 Y10.753807106598984 I-0.7335025380710659 J-0.868020304568528
G3 X16.72842639593909 Y10.847715736040609 I-0.5101522842639594 J-0.9873096446700508
G3 X16.467005076142133 Y10.878172588832486 I-0.2614213197969543 J-1.0710659898477157
G3 X16.038071065989847 Y10.791878172588834 I0 J-1.119289340101523
G3 X15.670050761421319 Y10.548223350253807 I0.4365482233502538 J-1.0482233502538072
G3 X15.423857868020306 Y10.180203045685278 I0.8020304568527918 J-0.8020304568527918
G3 X15.34010152284264 Y9.751269035532994 I1.0304568527918783 J-0.4289340101522843
G1 X15.34010152284264 Y9.751269035532994
G3 X15.423857868020306 Y9.32233502538071 I1.116751269035533 J0
G3 X15.670050761421319 Y8.954314720812183 I1.0482233502538072 J0.4365482233502538
G3 X16.038071065989847 Y8.710659898477157 I0.8045685279187818 J0.8045685279187818
G3 X16.467005076142133 Y8.624365482233502 I0.4289340101522843 J1.0304568527918783
G3 X16.733502538071065 Y8.657360406091371 I0 J1.1065989847715736
G3 X16.98477157360406 Y8.751269035532994 I-0.2690355329949239 J1.0812182741116751
G3 X17.19796954314721 Y8.898477157360405 I-0.5304568527918782 J1.0050761421319796
G3 X17.294416243654823 Y8.99238578680203 I-0.7588832487309645 J0.8781725888324874
G3 X17.3248730964467 Y8.98730964467005 I0.1649746192893401 J0.766497461928934
G3 X17.482233502538072 Y8.974619289340101 I0.13451776649746194 J0.7741116751269035
G1 X21.512690355329948 Y9.01015228426396
G1 X21.53299492385787 Y9.01015228426396
G1 X21.54568527918782 Y9.01015228426396
G3 X21.774111675126903 Y9.048223350253807 I-0.012690355329949238 J0.7842639593908629
G3 X21.97969543147208 Y9.149746192893401 I-0.23857868020304568 J0.7461928934010152
G3 X22.14720812182741 Y9.30710659898477 I-0.4467005076142132 J0.6446700507614213
G3 X22.263959390862947 Y9.50507614213198 I-0.6142131979695432 J0.4873096446700508
G3 X22.314720812182742 Y9.730964467005077 I-0.7309644670050762 J0.2893401015228426
G3 X22.317258883248734 Y9.794416243654823 I-0.7817258883248732 J0.06345177664974619
G3 X22.304568527918782 Y9.939086294416244 I-0.7842639593908629 J0
G0 Z3
G0 X9.988324873096447 Y12.865228426395939
G1 Z-0.35 F200
G1 X11.474619289340103 Y15.987309644670052 F100
G3 X11.527918781725887 Y16.134517766497463 I-0.7030456852791878 J0.3477157360406091
G1 X11.532994923857869 Y16.15482233502538
G3 X11.786802030456853 Y16.261421319796952 I-0.31725888324873097 J1.116751269035533
G3 X12.101522842639593 Y16.51776649746193 I-0.5812182741116751 J1.0253807106598984
G3 X12.309644670050762 Y16.870558375634516 I-0.883248730964467 J0.7588832487309645
G3 X12.383248730964468 Y17.274111675126903 I-1.0786802030456852 J0.4010152284263959
G3 X12.294416243654823 Y17.71827411167513 I-1.1548223350253808 J0
G3 X12.040609137055839 Y18.096446700507613 I-1.0837563451776648 J-0.45177664974619286
G3 X11.662436548223349 Y18.350253807106597 I-0.8299492385786802 J-0.8299492385786802
G3 X11.284263959390863 Y18.436548223350254 I-0.44416243654822335 J-1.0659898477157361
G1 X11.274111675126903 Y18.454314720812185
G3 X11.190355329949238 Y18.581218274111674 I-0.6903553299492386 J-0.3730964467005076
G1 X9.951776649746192 Y20.162436548223347
G3 X9.83756345177665 Y20.284263959390863 I-0.6243654822335025 J-0.47715736040609136
G3 X9.802030456852792 Y20.31218274111675 I-0.5076142131979695 J-0.5989847715736041
G1 X9.814720812182742 Y20.403553299492387
G1 X9.814720812182742 Y20.42639593908629
G3 X9.802030456852792 Y20.586294416243653 I-1.050761421319797 J0
G3 X9.766497461928934 Y20.743654822335028 I-1.0355329949238579 J-0.1598984771573604
G3 X9.708121827411167 Y20.885786802030456 I-1.0076142131979695 J-0.3197969543147208
G3 X9.695431472081218 Y20.913705583756347 I-0.9695431472081218 J-0.47208121827411165
G3 X9.713197969543147 Y20.949238578680202 I-0.6700507614213198 J0.40609137055837563
G3 X9.776649746192893 Y21.101522842639593 I-0.6903553299492386 J0.3730964467005076
G1 X10.763959390862945 Y24.34517766497462
G3 X10.794416243654823 Y24.48984771573604 I-0.748730964467005 J0.23857868020304568
G1 X10.796954314720812 Y24.51269035532995
G3 X10.974619289340101 Y24.6243654822335 I-0.5101522842639594 J1.0050761421319796
G3 X11.205583756345177 Y24.86294416243655 I-0.6903553299492386 J0.8959390862944162
G3 X11.357868020304569 Y25.16751269035533 I-0.9035532994923857 J0.6446700507614213
G3 X11.411167512690355 Y25.50253807106599 I-1.0456852791878173 J0.3350253807106599
G3 X11.324873096446701 Y25.928934010152282 I-1.1040609137055837 J0
G3 X11.083756345177665 Y26.29187817258883 I-1.0380710659898478 J-0.4314720812182741
G3 X10.720812182741117 Y26.53299492385787 I-0.7944162436548223 J-0.7944162436548223
G3 X10.294416243654823 Y26.619289340101524 I-0.42385786802030456 J-1.017766497461929
G3 X9.870558375634516 Y26.53299492385787 I0 J-1.1040609137055837
G3 X9.50761421319797 Y26.29187817258883 I0.4314720812182741 J-1.0380710659898478
G3 X9.266497461928934 Y25.928934010152282 I0.7944162436548223 J-0.7944162436548223
G3 X9.180203045685278 Y25.50253807106599 I1.017766497461929 J-0.42385786802030456
G3 X9.195431472081218 Y25.327411167512693 I1.0888324873096447 J0
G3 X9.238578680203046 Y25.15736040609137 I1.0786802030456852 J0.17512690355329952
G3 X9.304568527918782 Y25 I1.050761421319797 J0.35279187817258884
G3 X9.32741116751269 Y24.956852791878173 I1.0203045685279188 J0.5253807106598986
G1 X9.317258883248732 Y24.939086294416242
G3 X9.263959390862944 Y24.80203045685279 I0.6979695431472082 J-0.3553299492385787
G1 X8.276649746192893 Y21.560913705583754
G3 X8.243654822335026 Y21.395939086294415 I0.7461928934010152 J-0.24111675126903553
G3 X8.238578680203046 Y21.35532994923858 I0.7817258883248732 J-0.07614213197969544
G3 X8.086294416243655 Y21.251269035532996 I0.5177664974619289 J-0.9390862944162437
G3 X7.875634517766498 Y21.0253807106599 I0.6776649746192893 J-0.8401015228426396
G3 X7.736040609137056 Y20.738578680203045 I0.8730964467005076 J-0.6015228426395939
G3 X7.687817258883248 Y20.42639593908629 I1.00253807106599 J-0.31218274111675126
G3 X7.7664974619289335 Y20.0253807106599 I1.0532994923857868 J0
G3 X7.99492385786802 Y19.68020304568528 I0.9898477157360407 J0.4086294416243655
G3 X8.33502538071066 Y19.449238578680202 I0.7639593908629441 J0.7538071065989848
G3 X8.609137055837564 Y19.373096446700508 I0.416243654822335 J0.9695431472081218
G3 X8.626903553299492 Y19.33756345177665 I0.7182741116751269 J0.3147208121827411
G3 X8.715736040609137 Y19.19796954314721 I0.7030456852791878 J0.3477157360406091
G1 X9.951776649746192 Y17.619289340101524
G3 X10.055837563451778 Y17.5 I0.6319796954314721 J0.46446700507614214
G3 X10.083756345177665 Y17.47969543147208 I0.5279187817258884 J0.5812182741116751
G1 X10.053299492385788 Y17.302030456852794
G3 X10.050761421319796 Y17.274111675126903 I0.17258883248730966 J-0.027918781725888325
G3 X10.063451776649746 Y17.119289340101524 I1.0964467005076142 J0
G3 X10.093908629441623 Y16.96954314720812 I1.116751269035533 J0.15736040609137056
G3 X10.142131979695431 Y16.83248730964467 I1.119289340101523 J0.31725888324873097
G1 X10.149746192893401 Y16.814720812182742
G1 X10.137055837563452 Y16.799492385786802
G3 X10.058375634517766 Y16.664974619289342 I0.6319796954314721 J-0.46700507614213194
G1 X8.898477157360405 Y14.225888324873097
G1 X8.456852791878172 Y15.296954314720812
G3 X8.48223350253807 Y15.352791878172589 I-1.1370558375634519 J0.5456852791878173
G3 X8.530456852791877 Y15.48984771573604 I-1.0685279187817258 J0.45177664974619286
G3 X8.560913705583756 Y15.639593908629442 I-1.0812182741116751 J0.3071065989847716
G3 X8.573604060913706 Y15.791878172588834 I-1.0786802030456852 J0.15228426395939088
G3 X8.48477157360406 Y16.236040609137056 I-1.1548223350253808 J0
G3 X8.230964467005077 Y16.614213197969544 I-1.0837563451776648 J-0.45177664974619286
G3 X7.850253807106599 Y16.868020304568528 I-0.8299492385786802 J-0.8299492385786802
G3 X7.406091370558375 Y16.956852791878173 I-0.44416243654822335 J-1.0659898477157361
G3 X6.961928934010152 Y16.868020304568528 I0 J-1.1548223350253808
G3 X6.583756345177665 Y16.614213197969544 I0.45177664974619286 J-1.0862944162436547
G3 X6.32994923857868 Y16.236040609137056 I0.8299492385786802 J-0.8299492385786802
G3 X6.241116751269036 Y15.791878172588834 I1.0659898477157361 J-0.44416243654822335
G3 X6.304568527918781 Y15.418781725888325 I1.1446700507614214 J0
G3 X6.484771573604061 Y15.083756345177665 I1.0964467005076142 J0.3756345177664975
G3 X6.753807106598985 Y14.829949238578681 I0.9314720812182741 J0.7233502538071066
G3 X7.007614213197969 Y14.700507614213198 I0.6598984771573604 J0.9746192893401016
G1 X7.814720812182742 Y12.736040609137056
G3 X7.7944162436548226 Y12.68781725888325 I1.1802030456852792 J-0.5152284263959391
G3 X7.753807106598984 Y12.565989847715734 I1.0685279187817258 J-0.416243654822335
G3 X7.728426395939087 Y12.428934010152284 I1.0609137055837563 J-0.2817258883248731
G3 X7.718274111675127 Y12.291878172588833 I1.0380710659898478 J-0.13705583756345177
G3 X7.804568527918781 Y11.860406091370558 I1.116751269035533 J0
G3 X8.050761421319796 Y11.49492385786802 I1.0482233502538072 J0.4365482233502538
G3 X8.416243654822335 Y11.248730964467004 I0.8020304568527918 J0.8045685279187818
G3 X8.845177664974619 Y11.16497461928934 I0.4289340101522843 J1.032994923857868
G3 X9.276649746192893 Y11.248730964467004 I0 J1.116751269035533
G3 X9.642131979695431 Y11.49492385786802 I-0.4365482233502538 J1.0482233502538072
G3 X9.888324873096447 Y11.860406091370558 I-0.8020304568527918 J0.8020304568527918
G3 X9.974619289340103 Y12.291878172588833 I-1.0304568527918783 J0.4289340101522843
G3 X9.964467005076141 Y12.434010152284266 I-1.0558375634517767 J0
G3 X9.934010152284264 Y12.573604060913706 I-1.0761421319796955 J-0.14720812182741116
G3 X9.890862944162436 Y12.705583756345177 I-1.0837563451776648 J-0.2969543147208122
G3 X9.903553299492385 Y12.728426395939085 I-0.6700507614213198 J0.4086294416243655
G3 X9.98730964467005 Y12.865482233502538 I-0.6218274111675127 J0.47715736040609136
G0 Z3
G0 X29.168527918781727 Y39.89771573604061
G1 Z-0.35 F200
G1 X29.525380710659896 Y39.89847715736041 F100
G3 X29.64467005076142 Y39.90609137055837 I0 J0.83248730964467
G3 X29.730964467005077 Y39.92639593908629 I-0.07106598984771574 J0.4847715736040609
G3 X29.804568527918782 Y39.96192893401015 I-0.12436548223350254 J0.37055837563451777
G3 X29.86040609137056 Y40.00253807106599 I-0.15736040609137056 J0.2690355329949239
G3 X29.903553299492387 Y40.055837563451774 I-0.20304568527918782 J0.21319796954314718
G3 X29.939086294416242 Y40.121827411167516 I-0.27918781725888325 J0.18274111675126906
G3 X29.959390862944165 Y40.2005076142132 I-0.3857868020304569 J0.1446700507614213
G3 X29.96700507614213 Y40.31218274111676 I-0.6903553299492386 J0.1116751269035533
G3 X29.959390862944165 Y40.42131979695432 I-0.6878172588832487 J0
G3 X29.939086294416242 Y40.5 I-0.4010152284263959 J-0.06598984771573604
G3 X29.903553299492387 Y40.56598984771574 I-0.31218274111675126 J-0.11675126903553298
G3 X29.86040609137056 Y40.61675126903553 I-0.24873096446700507 J-0.16243654822335027
G3 X29.804568527918782 Y40.659898477157356 I-0.21319796954314718 J-0.22588832487309643
G3 X29.730964467005077 Y40.692893401015226 I-0.1979695431472081 J-0.3350253807106599
G3 X29.64467005076142 Y40.713197969543145 I-0.15736040609137056 J-0.46446700507614214
G3 X29.525380710659896 Y40.723350253807105 I-0.1218274111675127 J-0.8223350253807106
G1 X29.16751269035533 Y40.723350253807105
G1 X29.16751269035533 Y39.89847715736041
G0 Z3
G0 X28.80685279187817 Y40.90964467005076
G1 Z-0.35 F200
G1 X28.807106598984774 Y39.710659898477154 F100
G3 X28.939086294416242 Y39.54060913705584 I0.17512690355329952 J0
G3 X28.982233502538072 Y39.535532994923855 I0.043147208121827416 J0.1700507614213198
G1 X29.525380710659896 Y39.535532994923855
G3 X29.697969543147206 Y39.54822335025381 I0 J1.1903553299492384
G3 X29.769035532994927 Y39.56345177664974 I-0.12436548223350254 J0.8451776649746192
G3 X29.84771573604061 Y39.58375634517766 I-0.1954314720812183 J0.83248730964467
G3 X29.98984771573604 Y39.6497461928934 I-0.24111675126903553 J0.7157360406091371
G3 X30.109137055837564 Y39.74111675126903 I-0.3401015228426396 J0.5786802030456852
G3 X30.20812182741117 Y39.857868020304565 I-0.44923857868020306 J0.47461928934010156
G3 X30.276649746192895 Y39.994923857868024 I-0.583756345177665 J0.3807106598984772
G3 X30.314720812182742 Y40.14213197969543 I-0.7258883248730964 J0.2690355329949239
G3 X30.329949238578678 Y40.31218274111676 I-1.0456852791878173 J0.1700507614213198
G3 X30.314720812182742 Y40.47969543147208 I-1.0482233502538072 J0
G3 X30.276649746192895 Y40.62690355329949 I-0.7614213197969544 J-0.12436548223350254
G3 X30.20812182741117 Y40.76395939086295 I-0.6497461928934011 J-0.2436548223350254
G3 X30.109137055837564 Y40.880710659898476 I-0.5482233502538071 J-0.3604060913705584
G3 X29.98984771573604 Y40.97208121827411 I-0.4619289340101523 J-0.4873096446700508
G3 X29.84771573604061 Y41.03553299492386 I-0.383248730964467 J-0.6497461928934011
G3 X29.77157360406091 Y41.05837563451777 I-0.27411167512690354 J-0.8096446700507615
G3 X29.697969543147206 Y41.07106598984772 I-0.1979695431472081 J-0.83248730964467
G3 X29.525380710659896 Y41.08375634517767 I-0.17258883248730966 J-1.1751269035532994
G1 X28.982233502538072 Y41.08375634517767
G3 X28.921319796954315 Y41.0736040609137 I0 J-0.17512690355329952
G3 X28.807106598984774 Y40.90862944162437 I0.05837563451776649 J-0.1649746192893401
G0 Z3
G0 X28.741116751269036 Y38.278426395939086
G1 Z-0.35 F200
G1 X28.807106598984774 Y38.27918781725889 F100
G1 X28.807106598984774 Y39.370558375634516
G2 X28.939086294416242 Y39.54060913705584 I0.17512690355329952 J0
G2 X28.982233502538072 Y39.545685279187815 I0.043147208121827416 J-0.1700507614213198
G1 X29.525380710659896 Y39.545685279187815
G3 X29.763959390862947 Y39.56091370558376 I0 J1.885786802030457
G1 X29.769035532994927 Y39.56345177664974
G3 X29.939086294416242 Y39.598984771573605 I-0.1446700507614213 J1.0888324873096447
G3 X30.096446700507613 Y39.66243654822335 I-0.24111675126903553 J0.8096446700507615
G3 X30.205583756345177 Y39.74111675126903 I-0.27411167512690354 J0.5126903553299492
G3 X30.294416243654823 Y39.84010152284264 I-0.3553299492385787 J0.40609137055837563
G3 X30.36294416243655 Y39.96700507614213 I-0.49746192893401014 J0.3426395939086294
G3 X30.4010152284264 Y40.111675126903556 I-0.6878172588832487 J0.2639593908629442
G3 X30.418781725888326 Y40.31218274111676 I-1.2106598984771573 J0.20050761421319796
G3 X30.4010152284264 Y40.51015228426395 I-1.2030456852791878 J0
G3 X30.36294416243655 Y40.652284263959395 I-0.7182741116751269 J-0.11928934010152284
G3 X30.296954314720814 Y40.77918781725888 I-0.5609137055837563 J-0.2182741116751269
G3 X30.20812182741117 Y40.878172588832484 I-0.4467005076142132 J-0.30964467005076146
G3 X30.093908629441625 Y40.95685279187818 I-0.3883248730964467 J-0.434010152284264
G3 X29.939086294416242 Y41.02030456852792 I-0.3984771573604061 J-0.7385786802030457
G3 X29.77157360406091 Y41.05837563451777 I-0.3147208121827411 J-1.0431472081218274
G1 X29.763959390862947 Y41.05837563451777
G3 X29.525380710659896 Y41.0736040609137 I-0.23857868020304568 J-1.850253807106599
G1 X28.921319796954315 Y41.0736040609137
G1 X28.741116751269033 Y41.0736040609137
G1 X28.741116751269033 Y38.27918781725889
G0 Z3
G0 X28.379695431472083 Y41.26015228426396
G1 Z-0.35 F200
G1 X28.380710659898476 Y38.09137055837563 F100
G3 X28.555837563451778 Y37.91624365482234 I0.17512690355329952 J0
G1 X28.99238578680203 Y37.91624365482234
G3 X29.16751269035533 Y38.09137055837563 I0 J0.17512690355329952
G1 X29.16751269035533 Y39.18527918781726
G1 X29.525380710659896 Y39.18527918781726
G3 X29.809644670050762 Y39.203045685279186 I0 J2.248730964467005
G3 X30.043147208121827 Y39.253807106598984 I-0.18527918781725888 J1.4492385786802031
G3 X30.266497461928935 Y39.34517766497462 I-0.3451776649746193 J1.1573604060913705
G3 X30.444162436548226 Y39.46954314720812 I-0.44416243654822335 J0.83248730964467
G3 X30.593908629441625 Y39.63451776649747 I-0.5913705583756345 J0.6751269035532994
G3 X30.69796954314721 Y39.83756345177665 I-0.7944162436548223 J0.5482233502538071
G3 X30.758883248730964 Y40.0507614213198 I-1.0253807106598984 J0.3959390862944162
G3 X30.779187817258883 Y40.31218274111676 I-1.5710659898477157 J0.25888324873096447
G3 X30.758883248730964 Y40.568527918781726 I-1.5685279187817258 J0
G3 X30.69796954314721 Y40.78426395939086 I-1.0761421319796955 J-0.1802030456852792
G3 X30.593908629441625 Y40.984771573604064 I-0.8984771573604061 J-0.3477157360406091
G3 X30.446700507614214 Y41.147208121827404 I-0.7411167512690355 J-0.5126903553299492
G3 X30.266497461928935 Y41.2741116751269 I-0.6269035532994924 J-0.7055837563451777
G3 X30.043147208121827 Y41.368020304568525 I-0.5710659898477157 J-1.0583756345177666
G3 X29.812182741116754 Y41.41624365482233 I-0.41878172588832485 J-1.3883248730964468
G3 X29.525380710659896 Y41.434010152284266 I-0.2868020304568528 J-2.2106598984771573
G1 X28.555837563451778 Y41.434010152284266
G3 X28.380710659898476 Y41.25888324873096 I0 J-0.17512690355329952
G0 Z3
G0 X5.386548223350254 Y10.686040609137056
G1 Z-0.35 F200
G1 X5.228426395939087 Y13.251269035532996 F100
G3 X5.317258883248731 Y13.362944162436548 I-0.8553299492385786 J0.7791878172588833
G3 X5.426395939086294 Y13.555837563451776 I-0.9213197969543147 J0.6522842639593909
G3 X5.5 Y13.776649746192893 I-1.015228426395939 J0.45177664974619286
G3 X5.522842639593909 Y14.00761421319797 I-1.0837563451776648 J0.23096446700507614
G3 X5.436548223350254 Y14.436548223350254 I-1.116751269035533 J0
G3 X5.192893401015228 Y14.802030456852792 I-1.0482233502538072 J-0.4365482233502538
G3 X4.824873096446701 Y15.048223350253807 I-0.8020304568527918 J-0.8045685279187818
G3 X4.395939086294416 Y15.134517766497462 I-0.4289340101522843 J-1.032994923857868
G3 X3.967005076142132 Y15.048223350253807 I0 J-1.119289340101523
G3 X3.598984771573604 Y14.802030456852792 I0.4365482233502538 J-1.050761421319797
G3 X3.352791878172589 Y14.436548223350254 I0.8020304568527918 J-0.8045685279187818
G3 X3.269035532994924 Y14.00761421319797 I1.0304568527918783 J-0.4289340101522843
G3 X3.299492385786802 Y13.743654822335024 I1.1040609137055837 J0
G3 X3.3934010152284264 Y13.49238578680203 I1.0786802030456852 J0.26649746192893403
G3 X3.5380710659898478 Y13.281725888324873 I1.0076142131979695 J0.5279187817258884
G3 X3.66243654822335 Y13.15736040609137 I0.883248730964467 J0.7563451776649746
G1 X3.8197969543147208 Y10.598984771573603
G3 X3.7182741116751266 Y10.47969543147208 I0.8705583756345179 J-0.8426395939086294
G3 X3.596446700507614 Y10.276649746192895 I0.9365482233502538 J-0.6979695431472082
G3 X3.517766497461929 Y10.040609137055839 I1.0355329949238579 J-0.4847715736040609
G3 X3.489847715736041 Y9.794416243654823 I1.1116751269035532 J-0.24619289340101522
G3 X3.5786802030456855 Y9.350253807106599 I1.1548223350253808 J0
G3 X3.83248730964467 Y8.969543147208123 I1.0837563451776648 J0.45177664974619286
G3 X4.210659898477157 Y8.718274111675127 I0.8299492385786802 J0.8299492385786802
G3 X4.654822335025381 Y8.629441624365482 I0.44416243654822335 J1.0659898477157361
G3 X4.916243654822335 Y8.65989847715736 I0 J1.1370558375634519
G3 X5.16497461928934 Y8.748730964467006 I-0.2639593908629442 J1.114213197969543
G3 X5.378172588832487 Y8.885786802030456 I-0.5228426395939086 J1.0482233502538072
G3 X5.5 Y9 I-0.7614213197969544 J0.9441624365482233
G1 X8.035532994923857 Y8.974619289340101
G3 X8.154822335025381 Y8.865482233502538 I0.8629441624365481 J0.8350253807106599
G3 X8.360406091370558 Y8.738578680203045 I0.7081218274111676 J0.8984771573604061
G3 X8.596446700507613 Y8.652284263959391 I0.48984771573604063 J0.9974619289340102
G3 X8.845177664974619 Y8.624365482233502 I0.24873096446700507 J1.0710659898477157
G3 X9.276649746192893 Y8.710659898477157 I0 J1.116751269035533
G3 X9.642131979695431 Y8.954314720812183 I-0.4365482233502538 J1.0482233502538072
G3 X9.888324873096447 Y9.32233502538071 I-0.8045685279187818 J0.8020304568527918
G3 X9.974619289340103 Y9.751269035532994 I-1.032994923857868 J0.4289340101522843
G3 X9.888324873096447 Y10.180203045685278 I-1.116751269035533 J0
G3 X9.642131979695431 Y10.548223350253807 I-1.0482233502538072 J-0.4365482233502538
G3 X9.276649746192893 Y10.791878172588834 I-0.8020304568527918 J-0.8020304568527918
G3 X8.845177664974619 Y10.878172588832486 I-0.4289340101522843 J-1.0304568527918783
G3 X8.601522842639595 Y10.850253807106597 I0 J-1.0964467005076142
G3 X8.370558375634518 Y10.769035532994923 I0.24619289340101522 J-1.0786802030456852
G3 X8.17005076142132 Y10.647208121827411 I0.48984771573604063 J-1.0203045685279188
G3 X8.053299492385786 Y10.543147208121828 I0.7157360406091371 J-0.9289340101522843
G1 X5.50761421319797 Y10.568527918781726
G1 X5.385786802030457 Y10.685279187817258
G0 Z3
G0 X8.05253807106599 Y8.004060913705583
G1 Z-0.35 F200
G1 X5.517766497461929 Y8.030456852791879 F100
G3 X5.3908629441624365 Y8.152284263959391 I-0.8984771573604061 J-0.8071065989847716
G3 X5.1751269035533 Y8.294416243654823 I-0.751269035532995 J-0.901015228426396
G3 X4.9213197969543145 Y8.388324873096447 I-0.5228426395939086 J-1.0203045685279188
G3 X4.654822335025381 Y8.418781725888325 I-0.26649746192893403 J-1.1065989847715736
G3 X4.210659898477157 Y8.32994923857868 I0 J-1.1548223350253808
G3 X3.83248730964467 Y8.076142131979696 I0.45177664974619286 J-1.0837563451776648
G3 X3.5786802030456855 Y7.697969543147209 I0.83248730964467 J-0.8299492385786802
G3 X3.489847715736041 Y7.253807106598985 I1.0685279187817258 J-0.44416243654822335
G3 X3.5786802030456855 Y6.809644670050762 I1.1573604060913705 J0
G3 X3.83248730964467 Y6.431472081218274 I1.0837563451776648 J0.45177664974619286
G3 X4.210659898477157 Y6.177664974619289 I0.8299492385786802 J0.8299492385786802
G3 X4.654822335025381 Y6.088832487309644 I0.44416243654822335 J1.0659898477157361
G3 X4.916243654822335 Y6.119289340101522 I0 J1.1370558375634519
G3 X5.16497461928934 Y6.208121827411167 I-0.2639593908629442 J1.114213197969543
G3 X5.378172588832487 Y6.345177664974619 I-0.5228426395939086 J1.0482233502538072
G3 X5.5 Y6.459390862944162 I-0.7614213197969544 J0.9416243654822334
G1 X8.035532994923857 Y6.436548223350254
G3 X8.154822335025381 Y6.32741116751269 I0.8629441624365481 J0.8299492385786802
G3 X8.357868020304569 Y6.197969543147208 I0.7081218274111676 J0.8959390862944162
G3 X8.596446700507613 Y6.1116751269035525 I0.48984771573604063 J0.9974619289340102
G3 X8.845177664974619 Y6.083756345177665 I0.24873096446700507 J1.0685279187817258
G3 X9.276649746192893 Y6.17005076142132 I0 J1.116751269035533
G3 X9.642131979695431 Y6.416243654822335 I-0.4365482233502538 J1.0482233502538072
G3 X9.888324873096447 Y6.781725888324873 I-0.8045685279187818 J0.8045685279187818
G3 X9.974619289340103 Y7.210659898477157 I-1.032994923857868 J0.4289340101522843
G3 X9.888324873096447 Y7.6421319796954315 I-1.119289340101523 J0
G3 X9.642131979695431 Y8.00761421319797 I-1.0482233502538072 J-0.4365482233502538
G3 X9.276649746192893 Y8.253807106598984 I-0.8020304568527918 J-0.8020304568527918
G3 X8.845177664974619 Y8.340101522842641 I-0.4289340101522843 J-1.0304568527918783
G3 X8.601522842639595 Y8.312182741116752 I0 J-1.0964467005076142
G3 X8.370558375634518 Y8.230964467005077 I0.24619289340101522 J-1.0786802030456852
G3 X8.17005076142132 Y8.106598984771573 I0.48984771573604063 J-1.0203045685279188
G3 X8.053299492385786 Y8.00507614213198 I0.7157360406091371 J-0.9289340101522843
G0 Z3
G0 X8.052030456852792 Y5.4637055837563455
G1 Z-0.35 F200
G1 X5.517766497461929 Y5.48984771573604 F100
G3 X5.3908629441624365 Y5.611675126903553 I-0.8959390862944162 J-0.8045685279187818
G3 X5.1751269035533 Y5.753807106598985 I-0.748730964467005 J-0.901015228426396
G3 X4.9213197969543145 Y5.84771573604061 I-0.5228426395939086 J-1.0228426395939085
G3 X4.654822335025381 Y5.878172588832488 I-0.26649746192893403 J-1.1091370558375635
G3 X4.210659898477157 Y5.789340101522843 I0 J-1.1548223350253808
G3 X3.83248730964467 Y5.535532994923857 I0.45177664974619286 J-1.0837563451776648
G3 X3.5786802030456855 Y5.15736040609137 I0.8299492385786802 J-0.8299492385786802
G3 X3.489847715736041 Y4.713197969543147 I1.0659898477157361 J-0.44416243654822335
G3 X3.5786802030456855 Y4.269035532994923 I1.1573604060913705 J0
G3 X3.83248730964467 Y3.8908629441624365 I1.0837563451776648 J0.45177664974619286
G3 X4.210659898477157 Y3.6370558375634516 I0.8299492385786802 J0.8299492385786802
G3 X4.654822335025381 Y3.548223350253807 I0.44416243654822335 J1.0659898477157361
G3 X4.916243654822335 Y3.5786802030456855 I0 J1.134517766497462
G3 X5.16497461928934 Y3.66751269035533 I-0.2639593908629442 J1.114213197969543
G3 X5.378172588832487 Y3.8045685279187818 I-0.5253807106598986 J1.0482233502538072
G3 X5.5 Y3.9213197969543145 I-0.7639593908629441 J0.9441624365482233
G1 X8.035532994923857 Y3.895939086294416
G3 X8.154822335025381 Y3.786802030456853 I0.8629441624365481 J0.8350253807106599
G3 X8.360406091370558 Y3.6573604060913705 I0.7081218274111676 J0.8984771573604061
G3 X8.596446700507613 Y3.5736040609137056 I0.48984771573604063 J0.9974619289340102
G3 X8.845177664974619 Y3.5431472081218276 I0.24873096446700507 J1.0710659898477157
G3 X9.276649746192893 Y3.629441624365482 I0 J1.116751269035533
G3 X9.642131979695431 Y3.8756345177664975 I-0.4365482233502538 J1.0482233502538072
G3 X9.888324873096447 Y4.241116751269035 I-0.8020304568527918 J0.8020304568527918
G3 X9.974619289340103 Y4.67005076142132 I-1.0304568527918783 J0.4289340101522843
G3 X9.888324873096447 Y5.101522842639595 I-1.119289340101523 J0
G3 X9.642131979695431 Y5.467005076142132 I-1.050761421319797 J-0.4365482233502538
G3 X9.276649746192893 Y5.713197969543147 I-0.8045685279187818 J-0.8020304568527918
G3 X8.845177664974619 Y5.799492385786802 I-0.4289340101522843 J-1.0304568527918783
G3 X8.601522842639595 Y5.771573604060913 I0 J-1.098984771573604
G3 X8.368020304568528 Y5.690355329949238 I0.24619289340101522 J-1.0786802030456852
G3 X8.16751269035533 Y5.565989847715737 I0.48984771573604063 J-1.0203045685279188
G3 X8.050761421319796 Y5.464467005076142 I0.7157360406091371 J-0.9289340101522843
G0 Z3
G0 X17.419035532994926 Y13.419035532994924
G1 Z-0.35 F200
G1 X15.51269035532995 Y13.418781725888325 F100
G3 X15.34010152284264 Y13.243654822335024 I0 J-0.17512690355329952
G1 X15.34010152284264 Y11.340101522842641
G3 X15.51269035532995 Y11.16497461928934 I0.17512690355329952 J0
G1 X17.418781725888326 Y11.16497461928934
G3 X17.593908629441625 Y11.340101522842641 I0 J0.17512690355329952
G1 X17.593908629441625 Y11.49492385786802
G1 X18.114213197969544 Y11.487309644670052
G3 X18.241116751269036 Y11.365482233502537 I0.8984771573604061 J0.8071065989847716
G3 X18.456852791878173 Y11.223350253807107 I0.751269035532995 J0.901015228426396
G3 X18.710659898477157 Y11.129441624365482 I0.5228426395939086 J1.0203045685279188
G3 X18.977157360406093 Y11.098984771573603 I0.26649746192893403 J1.1065989847715736
G3 X19.421319796954315 Y11.187817258883248 I0 J1.1548223350253808
G3 X19.802030456852794 Y11.439086294416242 I-0.45177664974619286 J1.0837563451776648
G3 X20.055837563451778 Y11.819796954314722 I-0.8299492385786802 J0.8299492385786802
G3 X20.14213197969543 Y12.263959390862944 I-1.0659898477157361 J0.44416243654822335
G3 X20.055837563451778 Y12.708121827411167 I-1.1573604060913705 J0
G3 X19.802030456852794 Y13.086294416243655 I-1.0837563451776648 J-0.45177664974619286
G3 X19.421319796954315 Y13.340101522842641 I-0.8299492385786802 J-0.8299492385786802
G3 X18.977157360406093 Y13.428934010152284 I-0.44416243654822335 J-1.0659898477157361
G3 X18.718274111675125 Y13.398477157360407 I0 J-1.1370558375634519
G3 X18.46954314720812 Y13.307106598984772 I0.2639593908629442 J-1.114213197969543
G3 X18.256345177664976 Y13.172588832487309 I0.5228426395939086 J-1.0482233502538072
G3 X18.134517766497463 Y13.058375634517766 I0.7614213197969544 J-0.9441624365482233
G1 X17.593908629441625 Y13.063451776649746
G1 X17.593908629441625 Y13.243654822335024
G3 X17.418781725888326 Y13.418781725888325 I-0.17512690355329952 J0
G0 Z3
G0 X29.24010152284264 Y13.804060913705584
G1 Z-0.35 F200
G1 X29.241116751269036 Y12.923857868020306 F100
G3 X29.416243654822335 Y12.748730964467006 I0.17512690355329952 J0
G1 X29.69035532994924 Y12.748730964467006
G3 X29.86548223350254 Y12.923857868020306 I0 J0.17512690355329952
G1 X29.86548223350254 Y13.804568527918782
G3 X29.69035532994924 Y13.97969543147208 I-0.17512690355329952 J0
G1 X29.416243654822335 Y13.97969543147208
G3 X29.241116751269036 Y13.804568527918782 I0 J-0.17512690355329952
G0 Z3
G0 X29.976395939086295 Y26.895685279187816
G1 Z-0.35 F200
G1 X30.83248730964467 Y26.89593908629442 F100
G3 X31.00761421319797 Y27.071065989847718 I0 J0.17512690355329952
G1 X31.00761421319797 Y27.393401015228424
G3 X30.83248730964467 Y27.568527918781726 I-0.17512690355329952 J0
G1 X29.977157360406093 Y27.568527918781726
G1 X29.977157360406093 Y28.423857868020303
G3 X29.80203045685279 Y28.598984771573605 I-0.17512690355329952 J0
G1 X29.474619289340104 Y28.598984771573605
G3 X29.2994923857868 Y28.423857868020303 I0 J-0.17512690355329952
G1 X29.2994923857868 Y27.568527918781726
G1 X28.44670050761421 Y27.568527918781726
G3 X28.27157360406091 Y27.393401015228424 I0 J-0.17512690355329952
G1 X28.27157360406091 Y27.071065989847718
G3 X28.44670050761421 Y26.89593908629442 I0.17512690355329952 J0
G1 X29.2994923857868 Y26.89593908629442
G1 X29.2994923857868 Y26.04060913705584
G3 X29.474619289340104 Y25.86548223350254 I0.17512690355329952 J0
G1 X29.80203045685279 Y25.86548223350254
G3 X29.977157360406093 Y26.04060913705584 I0 J0.17512690355329952
G1 X29.977157360406093 Y26.89593908629442
G0 Z3
G0 X27.870304568527917 Y3.7967005076142133
G1 Z-0.35 F200
G3 X27.799492385786802 Y4.149746192893401 I-0.9187817258883249 J0 F100
G3 X27.601522842639593 Y4.446700507614213 I-0.8477157360406091 J-0.35025380710659904
G3 X27.30203045685279 Y4.647208121827411 I-0.6497461928934011 J-0.6497461928934011
G3 X26.95177664974619 Y4.715736040609137 I-0.35279187817258884 J-0.850253807106599
G3 X26.598984771573605 Y4.647208121827411 I0 J-0.9187817258883249
G3 X26.302030456852794 Y4.446700507614213 I0.35025380710659904 J-0.8477157360406091
G3 X26.101522842639593 Y4.149746192893401 I0.6497461928934011 J-0.6497461928934011
G3 X26.032994923857867 Y3.7969543147208125 I0.850253807106599 J-0.35279187817258884
G3 X26.101522842639593 Y3.4441624365482233 I0.9213197969543147 J0
G3 X26.302030456852794 Y3.1472081218274113 I0.850253807106599 J0.35279187817258884
G3 X26.598984771573605 Y2.946700507614213 I0.6497461928934011 J0.6497461928934011
G3 X26.95177664974619 Y2.878172588832487 I0.35279187817258884 J0.8477157360406091
G3 X27.30203045685279 Y2.946700507614213 I0 J0.9187817258883249
G3 X27.601522842639593 Y3.1472081218274113 I-0.35279187817258884 J0.850253807106599
G3 X27.799492385786802 Y3.4441624365482233 I-0.6497461928934011 J0.6497461928934011
G3 X27.87055837563452 Y3.7969543147208125 I-0.850253807106599 J0.35279187817258884
G0 Z3
G0 X26.04568527918782 Y2.8911167512690357
G1 Z-0.35 F200
G3 X26.46192893401015 Y2.6142131979695433 I0.9060913705583756 J0.9060913705583756 F100
G3 X26.95177664974619 Y2.515228426395939 I0.48984771573604063 J1.182741116751269
G3 X27.441624365482234 Y2.6142131979695433 I0 J1.2791878172588833
G3 X27.85532994923858 Y2.8908629441624365 I-0.48984771573604063 J1.182741116751269
G3 X28.13451776649746 Y3.307106598984771 I-0.9060913705583756 J0.9060913705583756
G3 X28.230964467005077 Y3.7969543147208125 I-1.182741116751269 J0.48984771573604063
G3 X28.13451776649746 Y4.286802030456853 I-1.281725888324873 J0
G3 X27.85532994923858 Y4.7030456852791875 I-1.182741116751269 J-0.48984771573604063
G3 X27.441624365482234 Y4.979695431472082 I-0.9060913705583756 J-0.9060913705583756
G3 X26.95177664974619 Y5.0761421319796955 I-0.48984771573604063 J-1.182741116751269
G3 X26.46192893401015 Y4.979695431472082 I0 J-1.281725888324873
G3 X26.045685279187815 Y4.7030456852791875 I0.48984771573604063 J-1.182741116751269
G3 X25.76903553299492 Y4.286802030456853 I0.9035532994923857 J-0.9060913705583756
G3 X25.670050761421322 Y3.7969543147208125 I1.182741116751269 J-0.48984771573604063
G3 X25.76903553299492 Y3.307106598984771 I1.2791878172588833 J0
G3 X26.045685279187815 Y2.8908629441624365 I1.182741116751269 J0.48984771573604063
G0 Z3
G0 X4.301269035532995 Y39.21827411167513
G1 Z-0.35 F200
G3 X3.949238578680203 Y39.28934010152284 I-0.35279187817258884 J-0.850253807106599 F100
G3 X3.596446700507614 Y39.21827411167513 I0 J-0.9187817258883249
G3 X3.299492385786802 Y39.01776649746193 I0.35279187817258884 J-0.850253807106599
G3 X3.098984771573604 Y38.72081218274112 I0.6497461928934011 J-0.6497461928934011
G3 X3.030456852791878 Y38.368020304568525 I0.850253807106599 J-0.35279187817258884
G3 X3.098984771573604 Y38.017766497461935 I0.9187817258883249 J0
G3 X3.299492385786802 Y37.71827411167513 I0.8477157360406091 J0.35025380710659904
G3 X3.596446700507614 Y37.52030456852792 I0.6497461928934011 J0.6497461928934011
G3 X3.949238578680203 Y37.4492385786802 I0.35279187817258884 J0.850253807106599
G3 X4.302030456852791 Y37.52030456852792 I0 J0.9213197969543147
G3 X4.598984771573605 Y37.71827411167513 I-0.35279187817258884 J0.850253807106599
G3 X4.799492385786802 Y38.017766497461935 I-0.6497461928934011 J0.6497461928934011
G3 X4.868020304568528 Y38.368020304568525 I-0.8477157360406091 J0.35279187817258884
G3 X4.799492385786802 Y38.72081218274112 I-0.9187817258883249 J0
G3 X4.598984771573605 Y39.01776649746193 I-0.850253807106599 J-0.35279187817258884
G3 X4.302030456852791 Y39.21827411167513 I-0.6497461928934011 J-0.6497461928934011
G0 Z3
G0 X4.8550761421319795 Y39.2741116751269
G1 Z-0.35 F200
G3 X4.439086294416244 Y39.5507614213198 I-0.9060913705583756 J-0.9060913705583756 F100
G3 X3.949238578680203 Y39.6497461928934 I-0.48984771573604063 J-1.182741116751269
G3 X3.4593908629441623 Y39.5507614213198 I0 J-1.2791878172588833
G3 X3.0431472081218276 Y39.2741116751269 I0.48984771573604063 J-1.182741116751269
G3 X2.766497461928934 Y38.857868020304565 I0.9060913705583756 J-0.9060913705583756
G3 X2.6700507614213196 Y38.368020304568525 I1.182741116751269 J-0.48984771573604063
G3 X2.766497461928934 Y37.878172588832484 I1.281725888324873 J0
G3 X3.0431472081218276 Y37.46192893401015 I1.182741116751269 J0.48984771573604063
G3 X3.4593908629441623 Y37.18527918781726 I0.9060913705583756 J0.9060913705583756
G3 X3.949238578680203 Y37.088832487309645 I0.48984771573604063 J1.182741116751269
G3 X4.439086294416244 Y37.18527918781726 I0 J1.281725888324873
G3 X4.855329949238579 Y37.46192893401015 I-0.48984771573604063 J1.182741116751269
G3 X5.131979695431472 Y37.878172588832484 I-0.9035532994923857 J0.9060913705583756
G3 X5.230964467005076 Y38.368020304568525 I-1.182741116751269 J0.48984771573604063
G3 X5.131979695431472 Y38.857868020304565 I-1.2791878172588833 J0
G3 X4.855329949238579 Y39.2741116751269 I-1.182741116751269 J-0.48984771573604063
G0 Z3
G0 X15.67030456852792 Y6.415228426395939
G1 Z-0.35 F200
G3 X16.038071065989847 Y6.17005076142132 I0.8045685279187818 J0.8045685279187818 F100
G3 X16.467005076142133 Y6.083756345177665 I0.4289340101522843 J1.0304568527918783
G3 X16.895939086294415 Y6.17005076142132 I0 J1.116751269035533
G3 X17.261421319796955 Y6.416243654822335 I-0.4365482233502538 J1.0482233502538072
G3 X17.50761421319797 Y6.781725888324873 I-0.8045685279187818 J0.8045685279187818
G3 X17.593908629441625 Y7.210659898477157 I-1.0304568527918783 J0.4289340101522843
G3 X17.50761421319797 Y7.6421319796954315 I-1.116751269035533 J0
G3 X17.261421319796955 Y8.00761421319797 I-1.0482233502538072 J-0.4365482233502538
G3 X16.895939086294415 Y8.253807106598984 I-0.8045685279187818 J-0.8045685279187818
G3 X16.467005076142133 Y8.340101522842641 I-0.4289340101522843 J-1.0304568527918783
G3 X16.038071065989847 Y8.253807106598984 I0 J-1.116751269035533
G3 X15.670050761421319 Y8.00761421319797 I0.4365482233502538 J-1.0482233502538072
G3 X15.423857868020306 Y7.6421319796954315 I0.8045685279187818 J-0.8045685279187818
G3 X15.34010152284264 Y7.210659898477157 I1.0304568527918783 J-0.4289340101522843
G1 X15.34010152284264 Y7.210659898477157
G3 X15.423857868020306 Y6.781725888324873 I1.116751269035533 J0
G3 X15.670050761421319 Y6.416243654822335 I1.050761421319797 J0.4365482233502538
G0 Z3
M5
M30
