(Generated by PartKam Version 0.05)

G21 G90 G40

(1mm)
G0 Z3
T0 M6
G17
M3
G0 X26.555837563451778 Y22.860406091370557
G1 Z-1.5 F600
G1 Z0 F600
G1 Z-2.3 F600
G1 Z0 F600
G0 Z3
G0 X26.555837563451778 Y17.78045685279188
G1 Z-1.5 F600
G1 Z0 F600
G1 Z-2.3 F600
G1 Z0 F600
G0 Z3
G0 X19.81065989847716 Y37.5502538071066
G1 Z-1.5 F600
G1 Z0 F600
G1 Z-2.3 F600
G1 Z0 F600
G0 Z3
G0 X24.890609137055836 Y37.5502538071066
G1 Z-1.5 F600
G1 Z0 F600
G1 Z-2.3 F600
G1 Z0 F600
G0 Z3
M5
M30
