(Generated by PartKam Version 0.05)

G21 G90 G40

(drill 1mm)
G0 Z3
T0 M6
G17
M3
G0 X12.511167512690355 Y38.42284263959391
G1 Z-1.5 F600
G1 Z0 F600
G1 Z-2.3 F600
G1 Z0 F600
G0 Z3
G0 X19.810913705583758 Y37.55862944162437
G1 Z-1.5 F600
G1 Z0 F600
G1 Z-2.3 F600
G1 Z0 F600
G0 Z3
G0 X24.890609137055836 Y37.55380710659899
G1 Z-1.5 F600
G1 Z0 F600
G1 Z-2.3 F600
G1 Z0 F600
G0 Z3
G0 X12.487817258883249 Y35.88274111675127
G1 Z-1.5 F600
G1 Z0 F600
G1 Z-2.3 F600
G1 Z0 F600
G0 Z3
G0 X12.5002538071066 Y33.34263959390863
G1 Z-1.5 F600
G1 Z0 F600
G1 Z-2.3 F600
G1 Z0 F600
G0 Z3
G0 X26.556598984771572 Y22.84492385786802
G1 Z-1.5 F600
G1 Z0 F600
G1 Z-2.3 F600
G1 Z0 F600
G0 Z3
G0 X26.556598984771572 Y17.78248730964467
G1 Z-1.5 F600
G1 Z0 F600
G1 Z-2.3 F600
G1 Z0 F600
G0 Z3
M5
M30
