(Generated by PartKam Version 0.05)

G21 G90 G40

(drill 2mm)
G0 Z3
T0 M6
G17
M3
G0 X3.949746192893401 Y38.368781725888326
G1 Z-1.5 F600
G1 Z0 F600
G1 Z-2.4 F600
G1 Z0 F600
G0 Z3
G0 X3.949746192893401 Y38.368781725888326
G1 Z-1.5 F600
G1 Z0 F600
G1 Z-2.4 F600
G1 Z0 F600
G0 Z3
G0 X26.950761421319797 Y3.796446700507614
G1 Z-1.5 F600
G1 Z0 F600
G1 Z-2.4 F600
G1 Z0 F600
G0 Z3
G0 X26.951269035532995 Y3.796446700507614
G1 Z-1.5 F600
G1 Z0 F600
G1 Z-2.4 F600
G1 Z0 F600
G0 Z3
M5
M30
