(Generated by PartKam Version 0.05)

G21 G90 G40

(drill 08mm)
G0 Z3
T0 M6
G17
M3
G0 X26.62284263959391 Y28.753045685279186
G1 Z-1.5 F600
G1 Z0 F600
G1 Z-2.3 F600
G1 Z0 F600
G0 Z3
G0 X19.04060913705584 Y28.735532994923858
G1 Z-1.5 F600
G1 Z0 F600
G1 Z-2.3 F600
G1 Z0 F600
G0 Z3
G0 X11.565482233502538 Y27.408629441624367
G1 Z-1.5 F600
G1 Z0 F600
G1 Z-2.3 F600
G1 Z0 F600
G0 Z3
G0 X18.47741116751269 Y25.624365482233504
G1 Z-1.5 F600
G1 Z0 F600
G1 Z-2.3 F600
G1 Z0 F600
G0 Z3
G0 X10.295431472081217 Y25.505837563451777
G1 Z-1.5 F600
G1 Z0 F600
G1 Z-2.3 F600
G1 Z0 F600
G0 Z3
G0 X12.835532994923858 Y25.57994923857868
G1 Z-1.5 F600
G1 Z0 F600
G1 Z-2.3 F600
G1 Z0 F600
G0 Z3
G0 X4.395685279187817 Y24.16243654822335
G1 Z-1.5 F600
G1 Z0 F600
G1 Z-2.3 F600
G1 Z0 F600
G0 Z3
G0 X18.490862944162437 Y20.544162436548223
G1 Z-1.5 F600
G1 Z0 F600
G1 Z-2.3 F600
G1 Z0 F600
G0 Z3
G0 X8.751269035532994 Y20.42309644670051
G1 Z-1.5 F600
G1 Z0 F600
G1 Z-2.3 F600
G1 Z0 F600
G0 Z3
G0 X13.81751269035533 Y20.36243654822335
G1 Z-1.5 F600
G1 Z0 F600
G1 Z-2.3 F600
G1 Z0 F600
G0 Z3
G0 X11.217005076142131 Y17.27233502538071
G1 Z-1.5 F600
G1 Z0 F600
G1 Z-2.3 F600
G1 Z0 F600
G0 Z3
G0 X16.29695431472081 Y17.27233502538071
G1 Z-1.5 F600
G1 Z0 F600
G1 Z-2.3 F600
G1 Z0 F600
G0 Z3
G0 X13.757106598984771 Y17.26243654822335
G1 Z-1.5 F600
G1 Z0 F600
G1 Z-2.3 F600
G1 Z0 F600
G0 Z3
G0 X7.407106598984772 Y15.825888324873096
G1 Z-1.5 F600
G1 Z0 F600
G1 Z-2.3 F600
G1 Z0 F600
G0 Z3
G0 X4.395685279187817 Y14.098223350253807
G1 Z-1.5 F600
G1 Z0 F600
G1 Z-2.3 F600
G1 Z0 F600
G0 Z3
G0 X19.071573604060912 Y12.263197969543148
G1 Z-1.5 F600
G1 Z0 F600
G1 Z-2.3 F600
G1 Z0 F600
G0 Z3
G0 X16.363197969543148 Y12.291116751269035
G1 Z-1.5 F600
G1 Z0 F600
G1 Z-2.3 F600
G1 Z0 F600
G0 Z3
G0 X8.846446700507615 Y12.23477157360406
G1 Z-1.5 F600
G1 Z0 F600
G1 Z-2.3 F600
G1 Z0 F600
G0 Z3
G0 X8.949492385786803 Y9.751269035532994
G1 Z-1.5 F600
G1 Z0 F600
G1 Z-2.3 F600
G1 Z0 F600
G0 Z3
G0 X16.4494923857868 Y9.751269035532994
G1 Z-1.5 F600
G1 Z0 F600
G1 Z-2.3 F600
G1 Z0 F600
G0 Z3
G0 X4.553299492385787 Y9.682741116751268
G1 Z-1.5 F600
G1 Z0 F600
G1 Z-2.3 F600
G1 Z0 F600
G0 Z3
G0 X4.561421319796954 Y7.253553299492386
G1 Z-1.5 F600
G1 Z0 F600
G1 Z-2.3 F600
G1 Z0 F600
G0 Z3
G0 X8.949492385786803 Y7.211421319796954
G1 Z-1.5 F600
G1 Z0 F600
G1 Z-2.3 F600
G1 Z0 F600
G0 Z3
G0 X16.466243654822335 Y7.211421319796954
G1 Z-1.5 F600
G1 Z0 F600
G1 Z-2.3 F600
G1 Z0 F600
G0 Z3
G0 X4.556852791878173 Y4.7137055837563455
G1 Z-1.5 F600
G1 Z0 F600
G1 Z-2.3 F600
G1 Z0 F600
G0 Z3
G0 X19.63984771573604 Y4.7137055837563455
G1 Z-1.5 F600
G1 Z0 F600
G1 Z-2.3 F600
G1 Z0 F600
G0 Z3
G0 X8.949492385786803 Y4.6713197969543145
G1 Z-1.5 F600
G1 Z0 F600
G1 Z-2.3 F600
G1 Z0 F600
G0 Z3
G0 X16.363959390862945 Y4.6713197969543145
G1 Z-1.5 F600
G1 Z0 F600
G1 Z-2.3 F600
G1 Z0 F600
G0 Z3
M5
M30
