(Generated by PartKam Version 0.05)

G21 G90 G40

(profile 1)
G0 Z3
T0 M6
G17
M3
G0 X-0.6104060913705583 Y42.261167512690356
G1 Z-2.2 F100
G1 X-0.6116751269035533 Y0.1903553299492386 F200
G3 X0.1903553299492386 Y-0.6091370558375635 I0.799492385786802 J0
G1 X31.11421319796954 Y-0.6091370558375635
G3 X31.913705583756347 Y0.1903553299492386 I0 J0.799492385786802
G1 X31.913705583756347 Y42.26142131979695
G3 X31.11421319796954 Y43.06091370558376 I-0.799492385786802 J0
G1 X0.1903553299492386 Y43.06091370558376
G3 X-0.6116751269035533 Y42.26142131979695 I0 J-0.799492385786802
G0 Z3
M5
M30
