(Generated by PartKam Version 0.05)

G21 G90 G40

(profile 2)
G0 Z3
T0 M6
G17
M3
G0 X-0.8868020304568528 Y42.43756345177665
G1 Z-1.1 F100
G1 X-0.8857868020304569 Y0.012690355329949238 F100
G3 X0.012690355329949238 Y-0.8857868020304569 I0.901015228426396 J0
G1 X31.289340101522846 Y-0.8857868020304569
G3 X32.19035532994924 Y0.012690355329949238 I0 J0.901015228426396
G1 X32.19035532994924 Y42.3502538071066
G1 X32.19035532994924 Y42.43654822335025
G3 X31.289340101522846 Y43.33756345177665 I-0.901015228426396 J0
G1 X0.012690355329949238 Y43.33756345177665
G3 X-0.8857868020304569 Y42.43654822335025 I0 J-0.901015228426396
G1 Z-2.2 F100
G1 X-0.8857868020304569 Y0.012690355329949238 F100
G3 X0.012690355329949238 Y-0.8857868020304569 I0.901015228426396 J0
G1 X31.289340101522846 Y-0.8857868020304569
G3 X32.19035532994924 Y0.012690355329949238 I0 J0.901015228426396
G1 X32.19035532994924 Y42.3502538071066
G1 X32.19035532994924 Y42.43654822335025
G3 X31.289340101522846 Y43.33756345177665 I-0.901015228426396 J0
G1 X0.012690355329949238 Y43.33756345177665
G3 X-0.8857868020304569 Y42.43654822335025 I0 J-0.901015228426396
G0 Z3
M5
M30
