(Generated by PartKam Version 0.05)

G21 G90 G40

(profile 1)
G0 Z3
T0 M6
G17
M3
G0 X0.834263959390863 Y15.65253807106599
G1 Z-0.35 F100
G1 X1.119289340101523 Y2.0888324873096447 F80
G3 X1.1522842639593909 Y1.865482233502538 I0.7842639593908629 J0.005076142131979696
G3 X1.248730964467005 Y1.6598984771573604 I0.751269035532995 J0.22842639593908629
G3 X1.4010152284263961 Y1.4923857868020305 I0.6548223350253807 J0.434010152284264
G3 X1.5939086294416245 Y1.3730964467005078 I0.5025380710659898 J0.6015228426395939
G3 X1.8121827411167513 Y1.3147208121827412 I0.30964467005076146 J0.7208121827411168
G3 X2.0228426395939088 Y1.3172588832487309 I0.09137055837563453 J0.7791878172588833
G1 X11.129441624365482 Y1.3172588832487309
G3 X11.388324873096447 Y1.3121827411167515 I0.15228426395939088 J0.7690355329949239
G3 X11.654822335025381 Y1.398477157360406 I-0.10659898477157359 J0.7766497461928934
G3 X11.873096446700508 Y1.5710659898477157 I-0.3730964467005076 J0.6903553299492386
G3 X12.01269035532995 Y1.8071065989847714 I-0.5913705583756345 J0.5152284263959391
G1 X14.47969543147208 Y7.852791878172589
G3 X14.548223350253807 Y8.00761421319797 I-0.6802030456852792 J0.3934010152284264
G3 X14.581218274111675 Y8.182741116751268 I-0.748730964467005 J0.23604060913705582
G3 X14.586294416243655 Y8.269035532994923 I-0.7791878172588833 J0.08629441624365483
G1 X14.586294416243655 Y8.286802030456853
G3 X14.578680203045685 Y8.383248730964466 I-0.7842639593908629 J-0.017766497461928935
G1 X14.088832487309643 Y16.961928934010153
G3 X14.065989847715736 Y17.119289340101524 I-0.7842639593908629 J-0.03299492385786802
G1 X14.060913705583758 Y17.139593908629443
G3 X14.149746192893403 Y17.236040609137056 I-0.8477157360406091 J0.8654822335025381
G3 X14.289340101522843 Y17.449238578680205 I-0.9060913705583756 J0.7436548223350253
G3 X14.380710659898476 Y17.700507614213198 I-1.0228426395939085 J0.5177664974619289
G3 X14.411167512690355 Y17.967005076142133 I-1.1065989847715736 J0.2639593908629442
G3 X14.32233502538071 Y18.408629441624363 I-1.1548223350253808 J0
G3 X14.068527918781726 Y18.789340101522843 I-1.0837563451776648 J-0.45177664974619286
G3 X13.690355329949238 Y19.043147208121827 I-0.8299492385786802 J-0.83248730964467
G3 X13.246192893401014 Y19.131979695431472 I-0.44416243654822335 J-1.0685279187817258
G3 X12.80203045685279 Y19.043147208121827 I0 J-1.1573604060913705
G3 X12.423857868020304 Y18.789340101522843 I0.45177664974619286 J-1.0837563451776648
G3 X12.17005076142132 Y18.408629441624363 I0.8299492385786802 J-0.8299492385786802
G3 X12.081218274111675 Y17.967005076142133 I1.0659898477157361 J-0.44416243654822335
G3 X12.119289340101522 Y17.66751269035533 I1.1472081218274113 J0
G3 X12.233502538071066 Y17.390862944162436 I1.114213197969543 J0.29949238578680204
G3 X12.408629441624367 Y17.15989847715736 I1.0203045685279188 J0.5888324873096447
G3 X12.530456852791879 Y17.050761421319798 I0.8553299492385786 J0.8299492385786802
G1 X12.527918781725889 Y17.03045685279188
G3 X12.520304568527918 Y16.928934010152282 I0.7791878172588833 J-0.10152284263959391
G3 X12.52284263959391 Y16.8756345177665 I0.7842639593908629 J0
G1 X13.00507614213198 Y8.395939086294415
G1 X10.761421319796954 Y2.8883248730964466
G1 X2.67258883248731 Y2.8883248730964466
G1 X2.4086294416243654 Y15.421319796954315
G1 X6.34263959390863 Y20.83502538071066
G3 X6.434010152284264 Y20.95939086294416 I-0.5786802030456852 J0.5304568527918782
G3 X6.50253807106599 Y21.104060913705585 I-0.6700507614213198 J0.4086294416243655
G3 X6.543147208121828 Y21.241116751269033 I-0.7309644670050762 J0.28426395939086296
G3 X6.555837563451776 Y21.373096446700508 I-0.7715736040609138 J0.14720812182741116
G1 X7.7055837563451774 Y31.454314720812185
G1 X11.093908629441625 Y33.24873096446701
G3 X11.225888324873097 Y33.33502538071066 I-0.3604060913705584 J0.6979695431472082
G1 X11.248730964467004 Y33.33248730964467
G3 X11.388324873096447 Y33.28426395939086 I0.46446700507614214 J1.1218274111675126
G3 X11.540609137055837 Y33.25126903553299 I0.3147208121827411 J1.1294416243654823
G3 X11.69796954314721 Y33.24111675126903 I0.15482233502538073 J1.1243654822335025
G3 X12.15989847715736 Y33.33502538071066 I0 J1.2055837563451777
G3 X12.555837563451778 Y33.598984771573605 I-0.47208121827411165 J1.131979695431472
G3 X12.819796954314722 Y33.99492385786802 I-0.8654822335025381 J0.8654822335025381
G3 X12.913705583756345 Y34.45939086294416 I-1.1116751269035532 J0.46446700507614214
G3 X12.819796954314722 Y34.921319796954315 I-1.2055837563451777 J0
G3 X12.555837563451778 Y35.317258883248726 I-1.131979695431472 J-0.47208121827411165
G3 X12.15989847715736 Y35.58121827411168 I-0.8654822335025381 J-0.868020304568528
G3 X11.69796954314721 Y35.6751269035533 I-0.46446700507614214 J-1.114213197969543
G3 X11.258883248730964 Y35.59137055837563 I0 J-1.1979695431472082
G3 X10.878172588832486 Y35.35279187817259 I0.44416243654822335 J-1.1294416243654823
G3 X10.611675126903553 Y34.99746192893401 I0.8350253807106599 J-0.901015228426396
G3 X10.510152284263958 Y34.7005076142132 I1.0913705583756346 J-0.5406091370558376
G1 X10.497461928934012 Y34.69543147208122
G3 X10.360406091370557 Y34.63705583756345 I0.23604060913705582 J-0.748730964467005
G1 X6.695431472081218 Y32.69543147208122
G3 X6.5126903553299496 Y32.59644670050761 I0.27918781725888325 J-0.7335025380710659
G3 X6.355329949238579 Y32.444162436548226 I0.4619289340101523 J-0.6345177664974619
G3 X6.246192893401014 Y32.253807106598984 I0.6192893401015229 J-0.48223350253807107
G3 X6.192893401015228 Y32.04314720812183 I0.7284263959390863 J-0.2918781725888325
G1 X5.0126903553299496 Y21.675126903553302
G1 X1.032994923857868 Y16.200507614213198
G3 X0.9060913705583756 Y16.00253807106599 I0.5862944162436547 J-0.5228426395939086
G3 X0.8401015228426396 Y15.769035532994923 I0.7131979695431472 J-0.32487309644670054
G3 X0.8350253807106599 Y15.710659898477157 I0.7791878172588833 J-0.09644670050761422
G3 X0.8350253807106599 Y15.672588832487309 I0.7842639593908629 J-0.03807106598984772
G1 X0.8350253807106599 Y15.652284263959391
G0 Z3
G0 X23.519543147208122 Y4.738832487309645
G1 Z-0.35 F100
G1 X26.888324873096447 Y16.139593908629443 F80
G3 X27.340101522842637 Y16.304568527918782 I-0.33248730964467005 J1.6269035532994924
G3 X27.80964467005076 Y16.6751269035533 I-0.8020304568527918 J1.5
G3 X28.121827411167516 Y17.192893401015226 I-1.2614213197969542 J1.116751269035533
G3 X28.230964467005077 Y17.78172588832487 I-1.5431472081218276 J0.5888324873096447
G3 X28.10406091370558 Y18.418781725888323 I-1.6548223350253808 J0
G3 X27.738578680203045 Y18.961928934010153 I-1.5609137055837563 J-0.6522842639593909
G3 X27.192893401015226 Y19.327411167512693 I-1.1979695431472082 J-1.1979695431472082
G3 X26.555837563451774 Y19.45431472081218 I-0.6370558375634517 J-1.5279187817258881
G3 X26.230964467005077 Y19.423857868020306 I0 J-1.6421319796954315
G3 X25.921319796954315 Y19.327411167512693 I0.32487309644670054 J-1.6167512690355328
G3 X25.644670050761423 Y19.180203045685282 I0.6472081218274112 J-1.548223350253807
G3 X25.48223350253807 Y19.060913705583758 I0.9492385786802031 J-1.4390862944162435
G1 X19.560913705583754 Y21.451776649746193
G3 X19.411167512690355 Y21.497461928934012 I-0.30456852791878175 J-0.7233502538071066
G3 X19.3756345177665 Y21.505076142131976 I-0.15228426395939088 J-0.7690355329949239
G3 X19.261421319796955 Y21.695431472081218 I-1.0659898477157361 J-0.5152284263959391
G3 X19.027918781725887 Y21.928934010152282 I-0.9187817258883249 J-0.6802030456852792
G3 X18.72335025380711 Y22.088832487309645 I-0.6522842639593909 J-0.8705583756345179
G3 X18.390862944162436 Y22.14467005076142 I-0.33248730964467005 J-0.9873096446700508
G1 X18.370558375634516 Y22.142131979695428
G1 X18.294416243654823 Y22.134517766497463
G3 X18.266497461928935 Y22.16751269035533 I-0.6345177664974619 J-0.46446700507614214
G3 X18.149746192893403 Y22.284263959390863 I-0.6065989847715736 J-0.49746192893401014
G1 X15.642131979695431 Y24.31979695431472
G3 X15.50253807106599 Y24.411167512690355 I-0.5 J-0.6040609137055838
G3 X15.467005076142133 Y24.428934010152282 I-0.3604060913705584 J-0.6954314720812182
G3 X15.393401015228427 Y24.710659898477157 I-1.0532994923857868 J-0.12436548223350254
G3 X15.16243654822335 Y25.058375634517766 I-0.9898477157360407 J-0.4111675126903553
G3 X14.817258883248732 Y25.289340101522843 I-0.7588832487309645 J-0.7563451776649746
G3 X14.411167512690355 Y25.37055837563452 I-0.40609137055837563 J-0.9720812182741116
G3 X14.383248730964466 Y25.368020304568528 I0 J-0.17512690355329952
G1 X14.233502538071065 Y25.34517766497462
G3 X14.200507614213198 Y25.380710659898476 I-0.5989847715736041 J-0.5076142131979695
G3 X14.073604060913706 Y25.48730964467005 I-0.5685279187817259 J-0.5406091370558376
G1 X12.621827411167512 Y26.479695431472084
G1 X12.621827411167512 Y27.41624365482234
G1 X12.621827411167512 Y27.421319796954315
G3 X12.606598984771573 Y27.568527918781726 I-0.7842639593908629 J0
G3 X12.725888324873097 Y27.687817258883246 I-0.8147208121827411 J0.9314720812182741
G3 X12.901015228426395 Y27.92639593908629 I-0.8984771573604061 J0.8350253807106599
G3 X13.01269035532995 Y28.210659898477157 I-1.0558375634517767 J0.5862944162436547
G3 X13.050761421319796 Y28.51269035532995 I-1.1649746192893402 J0.3020304568527919
G3 X12.959390862944161 Y28.9746192893401 I-1.2055837563451777 J0
G3 X12.695431472081218 Y29.37055837563452 I-1.1294416243654823 J-0.46954314720812185
G3 X12.2994923857868 Y29.634517766497463 I-0.8654822335025381 J-0.8654822335025381
G3 X11.83502538071066 Y29.728426395939085 I-0.46446700507614214 J-1.114213197969543
G3 X11.373096446700508 Y29.634517766497463 I0 J-1.2081218274111676
G3 X10.97715736040609 Y29.37055837563452 I0.46954314720812185 J-1.131979695431472
G3 X10.713197969543147 Y28.9746192893401 I0.8654822335025381 J-0.8654822335025381
G3 X10.619289340101524 Y28.51269035532995 I1.1116751269035532 J-0.46446700507614214
G3 X10.65736040609137 Y28.210659898477157 I1.2055837563451777 J0
G3 X10.771573604060913 Y27.92639593908629 I1.16751269035533 J0.30456852791878175
G3 X10.944162436548224 Y27.687817258883246 I1.0710659898477157 J0.5964467005076142
G3 X11.065989847715736 Y27.568527918781726 I0.9314720812182741 J0.8121827411167513
G3 X11.050761421319796 Y27.418781725888323 I0.7715736040609138 J-0.14720812182741116
G1 X11.050761421319796 Y27.41624365482234
G1 X11.050761421319796 Y26.162436548223347
G3 X11.045685279187818 Y26.071065989847714 I0.7791878172588833 J-0.09390862944162437
G3 X11.050761421319796 Y25.9746192893401 I0.7842639593908629 J0
G3 X11.101522842639593 Y25.779187817258883 I0.7791878172588833 J0.09390862944162437
G3 X11.197969543147208 Y25.60406091370558 I0.7284263959390863 J0.2893401015228426
G3 X11.33756345177665 Y25.45939086294416 I0.6319796954314721 J0.46700507614213194
G3 X11.365482233502537 Y25.436548223350254 I0.49746192893401014 J0.6065989847715736
G3 X11.393401015228426 Y25.416243654822335 I0.46954314720812185 J0.6269035532994924
G1 X13.187817258883248 Y24.19289340101523
G3 X13.33502538071066 Y24.111675126903553 I0.4467005076142132 J0.6446700507614213
G3 X13.373096446700508 Y24.098984771573605 I0.2969543147208122 J0.7258883248730964
G3 X13.411167512690357 Y23.95685279187817 I1.0380710659898478 J0.21065989847715735
G3 X13.535532994923859 Y23.710659898477154 I0.9974619289340102 J0.35279187817258884
G3 X13.713197969543147 Y23.51015228426396 I0.883248730964467 J0.6015228426395939
G3 X13.827411167512691 Y23.423857868020303 I0.7055837563451777 J0.8045685279187818
G3 X13.824873096446701 Y23.39086294416244 I0.7842639593908629 J-0.03299492385786802
G1 X13.824873096446701 Y23.388324873096447
G3 X13.845177664974619 Y23.21827411167513 I0.7842639593908629 J0.002538071065989848
G1 X14.79695431472081 Y18.82741116751269
G3 X14.84010152284264 Y18.67766497461929 I0.7715736040609138 J0.1446700507614213
G1 X14.850253807106599 Y18.65482233502538
G3 X14.802030456852792 Y18.583756345177665 I0.967005076142132 J-0.7182741116751269
G3 X14.705583756345177 Y18.39593908629442 I0.9822335025380711 J-0.6269035532994924
G3 X14.642131979695431 Y18.185279187817258 I1.0583756345177666 J-0.4314720812182741
G3 X14.619289340101522 Y17.967005076142133 I1.119289340101523 J-0.2182741116751269
G3 X14.708121827411167 Y17.52284263959391 I1.1548223350253808 J0
G3 X14.961928934010151 Y17.14213197969543 I1.0837563451776648 J0.45177664974619286
G3 X15.342639593908629 Y16.888324873096447 I0.8299492385786802 J0.8299492385786802
G3 X15.786802030456853 Y16.799492385786802 I0.44416243654822335 J1.0659898477157361
G3 X16.230964467005077 Y16.888324873096447 I0 J1.1548223350253808
G3 X16.609137055837564 Y17.14213197969543 I-0.45177664974619286 J1.0837563451776648
G3 X16.86294416243655 Y17.52284263959391 I-0.8299492385786802 J0.8299492385786802
G3 X16.951776649746193 Y17.967005076142133 I-1.0659898477157361 J0.44416243654822335
G1 X16.951776649746193 Y17.967005076142133
G3 X16.901015228426395 Y18.304568527918782 I-1.1548223350253808 J0
G3 X16.751269035532992 Y18.616751269035532 I-1.1116751269035532 J-0.3426395939086294
G3 X16.5253807106599 Y18.865482233502537 I-0.9771573604060914 J-0.6624365482233502
G3 X16.35279187817259 Y18.982233502538072 I-0.7436548223350253 J-0.9035532994923857
G1 X16.350253807106597 Y19.00507614213198
G3 X16.32994923857868 Y19.15482233502538 I-0.7842639593908629 J-0.03299492385786802
G1 X15.649746192893401 Y22.29187817258883
G1 X17.15989847715736 Y21.065989847715734
G3 X17.299492385786802 Y20.9746192893401 I0.5 J0.6040609137055838
G3 X17.33248730964467 Y20.956852791878173 I0.3604060913705584 J0.6979695431472082
G3 X17.406091370558375 Y20.6751269035533 I1.0532994923857868 J0.12436548223350254
G3 X17.63959390862944 Y20.329949238578678 I0.9898477157360407 J0.4111675126903553
G3 X17.98477157360406 Y20.096446700507613 I0.7588832487309645 J0.7563451776649746
G3 X18.390862944162436 Y20.015228426395943 I0.40609137055837563 J0.9720812182741116
G3 X18.527918781725887 Y20.0253807106599 I0 J0.9923857868020304
G3 X18.66243654822335 Y20.053299492385786 I-0.14213197969543148 J1.015228426395939
G3 X18.786802030456855 Y20.096446700507613 I-0.2868020304568528 J1.0228426395939085
G3 X18.82233502538071 Y20.076142131979697 I0.41878172588832485 J0.6624365482233502
G3 X18.972081218274113 Y19.997461928934012 I0.4365482233502538 J0.6522842639593909
G1 X24.890862944162436 Y17.606598984771573
G3 X24.934010152284266 Y17.3756345177665 I1.619289340101523 J0.17258883248730966
G3 X25.055837563451778 Y17.048223350253807 I1.5939086294416245 J0.4086294416243655
G3 X25.236040609137053 Y16.763959390862944 I1.5050761421319798 J0.7538071065989848
G3 X25.388324873096447 Y16.593908629441625 I1.3730964467005078 J1.0761421319796955
G1 X22.16751269035533 Y5.7030456852791875
G1 X20.530456852791875 Y5.5761421319796955
G3 X20.373096446700508 Y5.550761421319796 I0.043147208121827416 J-0.7842639593908629
G1 X20.3502538071066 Y5.5456852791878175
G3 X20.256345177664976 Y5.626903553299493 I-0.850253807106599 J-0.8654822335025381
G3 X20.048223350253807 Y5.761421319796955 I-0.7284263959390863 J-0.9137055837563451
G3 X19.802030456852794 Y5.850253807106599 I-0.5050761421319797 J-1.0228426395939085
G3 X19.543147208121827 Y5.880710659898477 I-0.25888324873096447 J-1.1040609137055837
G3 X19.256345177664976 Y5.842639593908629 I0 J-1.1548223350253808
G3 X18.987309644670052 Y5.738578680203046 I0.2868020304568528 J-1.1218274111675126
G3 X18.758883248730964 Y5.5761421319796955 I0.5634517766497462 J-1.0304568527918783
G3 X18.65482233502538 Y5.467005076142132 I0.7969543147208122 J-0.8730964467005076
G1 X18.639593908629443 Y5.472081218274112
G3 X18.48477157360406 Y5.484771573604061 I-0.1446700507614213 J-0.7715736040609138
G1 X17.467005076142133 Y5.469543147208121
G3 X17.30710659898477 Y5.4543147208121825 I-0.005076142131979696 J-0.7842639593908629
G3 X17.276649746192895 Y5.446700507614213 I0.15736040609137056 J-0.7690355329949239
G3 X17.18274111675127 Y5.535532994923857 I-0.8451776649746192 J-0.8071065989847716
G3 X16.9746192893401 Y5.675126903553299 I-0.7309644670050762 J-0.868020304568528
G3 X16.725888324873097 Y5.769035532994923 I-0.5101522842639594 J-0.9847715736040609
G3 X16.467005076142133 Y5.799492385786802 I-0.2614213197969543 J-1.0685279187817258
G3 X16.038071065989847 Y5.713197969543147 I0 J-1.116751269035533
G3 X15.670050761421319 Y5.467005076142132 I0.4365482233502538 J-1.0482233502538072
G3 X15.423857868020306 Y5.101522842639595 I0.8045685279187818 J-0.8045685279187818
G3 X15.34010152284264 Y4.67005076142132 I1.0304568527918783 J-0.4289340101522843
G1 X15.34010152284264 Y4.67005076142132
G3 X15.423857868020306 Y4.241116751269035 I1.116751269035533 J0
G3 X15.670050761421319 Y3.8756345177664975 I1.0482233502538072 J0.4365482233502538
G3 X16.038071065989847 Y3.629441624365482 I0.8020304568527918 J0.8045685279187818
G3 X16.467005076142133 Y3.5431472081218276 I0.4289340101522843 J1.032994923857868
G3 X16.736040609137056 Y3.5761421319796955 I0 J1.1091370558375635
G3 X16.98730964467005 Y3.6751269035532994 I-0.2690355329949239 J1.0812182741116751
G3 X17.20304568527919 Y3.8223350253807107 I-0.5329949238578681 J1.0050761421319796
G3 X17.299492385786802 Y3.918781725888325 I-0.7614213197969544 J0.8730964467005076
G3 X17.32741116751269 Y3.911167512690356 I0.16243654822335027 J0.766497461928934
G3 X17.48730964467005 Y3.901015228426396 I0.13451776649746194 J0.7741116751269035
G1 X18.507614213197968 Y3.913705583756345
G3 X18.66243654822335 Y3.931472081218274 I-0.010152284263959392 J0.7842639593908629
G1 X18.68020304568528 Y3.9365482233502536
G3 X18.779187817258883 Y3.83756345177665 I0.8883248730964467 J0.799492385786802
G3 X19.00253807106599 Y3.682741116751269 I0.7741116751269035 J0.883248730964467
G3 X19.263959390862944 Y3.581218274111675 I0.5406091370558376 J1.017766497461929
G3 X19.543147208121827 Y3.548223350253807 I0.27918781725888325 J1.114213197969543
G3 X19.84517766497462 Y3.588832487309644 I0 J1.1421319796954315
G3 X20.126903553299492 Y3.708121827411168 I-0.30456852791878175 J1.1091370558375635
G3 X20.357868020304572 Y3.8883248730964466 I-0.5989847715736041 J1.012690355329949
G3 X20.46954314720812 Y4.0152284263959395 I-0.8477157360406091 J0.8477157360406091
G1 X20.492385786802032 Y4.0126903553299496
G3 X20.64720812182741 Y4.0126903553299496 I0.08375634517766498 J0.7791878172588833
G1 X22.829949238578678 Y4.180203045685279
G3 X22.86294416243655 Y4.182741116751269 I-0.07106598984771574 J0.7817258883248732
G3 X22.890862944162436 Y4.187817258883248 I-0.10152284263959391 J0.7791878172588833
G1 X22.908629441624363 Y4.190355329949239
G1 X22.92639593908629 Y4.192893401015229
G1 X22.949238578680205 Y4.197969543147208
G1 X22.96954314720812 Y4.203045685279188
G1 X22.98984771573604 Y4.208121827411167
G1 X23.005076142131983 Y4.213197969543147
G1 X23.02030456852792 Y4.220812182741117
G1 X23.04060913705584 Y4.225888324873097
G1 X23.060913705583754 Y4.2335025380710665
G1 X23.083756345177665 Y4.243654822335025
G1 X23.098984771573605 Y4.251269035532995
G1 X23.116751269035532 Y4.258883248730965
G3 X23.15482233502538 Y4.279187817258883 I-0.3477157360406091 J0.7030456852791878
G3 X23.19543147208122 Y4.304568527918782 I-0.3883248730964467 J0.6827411167512689
G3 X23.228426395939085 Y4.3274111675126905 I-0.4314720812182741 J0.6548223350253807
G3 X23.256345177664976 Y4.350253807106599 I-0.4619289340101523 J0.6345177664974619
G3 X23.286802030456855 Y4.375634517766497 I-0.4873096446700508 J0.6142131979695432
G3 X23.317258883248734 Y4.401015228426396 I-0.5177664974619289 J0.5888324873096447
G3 X23.34517766497462 Y4.431472081218274 I-0.5507614213197969 J0.5583756345177665
G3 X23.370558375634516 Y4.459390862944162 I-0.5786802030456852 J0.5304568527918782
G3 X23.393401015228427 Y4.48984771573604 I-0.6040609137055838 J0.5025380710659898
G3 X23.41624365482233 Y4.522842639593908 I-0.6269035532994924 J0.46954314720812185
G3 X23.439086294416246 Y4.555837563451776 I-0.6522842639593909 J0.4365482233502538
G3 X23.456852791878173 Y4.588832487309645 I-0.6725888324873096 J0.4035532994923858
G3 X23.4746192893401 Y4.624365482233502 I-0.6903553299492386 J0.3756345177664975
G3 X23.48984771573604 Y4.659898477157361 I-0.7081218274111676 J0.3401015228426396
G3 X23.50507614213198 Y4.697969543147208 I-0.7233502538071066 J0.3071065989847716
G3 X23.520304568527916 Y4.738578680203045 I-0.7385786802030457 J0.2690355329949239
G0 Z3
G0 X12.253299492385787 Y8.203553299492386
G1 Z-0.35 F100
G1 X11.568527918781726 Y16.97969543147208 F80
G3 X11.543147208121827 Y17.13451776649746 I-0.7842639593908629 J-0.04822335025380711
G1 X11.538071065989847 Y17.15736040609137
G3 X11.619289340101522 Y17.251269035532996 I-0.868020304568528 J0.850253807106599
G3 X11.753807106598986 Y17.461928934010153 I-0.916243654822335 J0.7309644670050762
G3 X11.84010152284264 Y17.70812182741117 I-1.0253807106598984 J0.5076142131979695
G3 X11.870558375634516 Y17.967005076142133 I-1.1040609137055837 J0.25888324873096447
G3 X11.781725888324871 Y18.408629441624363 I-1.1548223350253808 J0
G3 X11.527918781725887 Y18.789340101522843 I-1.0837563451776648 J-0.45177664974619286
G3 X11.149746192893401 Y19.043147208121827 I-0.8299492385786802 J-0.83248730964467
G3 X10.705583756345177 Y19.131979695431472 I-0.44416243654822335 J-1.0685279187817258
G3 X10.261421319796955 Y19.043147208121827 I0 J-1.1548223350253808
G3 X9.883248730964468 Y18.789340101522843 I0.45177664974619286 J-1.0837563451776648
G3 X9.629441624365482 Y18.411167512690355 I0.8299492385786802 J-0.8299492385786802
G3 X9.540609137055839 Y17.967005076142133 I1.0659898477157361 J-0.44416243654822335
G3 X9.581218274111675 Y17.66243654822335 I1.1446700507614214 J0
G3 X9.700507614213198 Y17.380710659898476 I1.1091370558375635 J0.30456852791878175
G3 X9.880710659898478 Y17.14720812182741 I1.012690355329949 J0.5989847715736041
G3 X10.007614213197972 Y17.038071065989847 I0.8451776649746192 J0.8477157360406091
G1 X10.00507614213198 Y17.01522842639594
G3 X10 Y16.928934010152282 I0.7791878172588833 J-0.08629441624365483
G3 X10.00507614213198 Y16.86040609137056 I0.7842639593908629 J0
G1 X10.649746192893401 Y8.601522842639595
G1 X9.573604060913706 Y8.263959390862944
G3 X9.426395939086294 Y8.200507614213198 I0.22842639593908629 J-0.751269035532995
G3 X9.403553299492385 Y8.187817258883248 I0.3781725888324873 J-0.6878172588832487
G3 X9.362944162436548 Y8.210659898477157 I-0.5939086294416244 J-1.0228426395939085
G3 X9.203045685279188 Y8.279187817258883 I-0.5253807106598986 J-0.9923857868020304
G3 X9.027918781725889 Y8.324873096446701 I-0.35786802030456855 J-1.0380710659898478
G3 X8.845177664974619 Y8.340101522842641 I-0.1802030456852792 J-1.0710659898477157
G3 X8.583756345177665 Y8.307106598984772 I0 J-1.1040609137055837
G3 X8.33756345177665 Y8.215736040609137 I0.2639593908629442 J-1.0786802030456852
G3 X8.126903553299492 Y8.073604060913706 I0.5228426395939086 J-1.0076142131979695
G3 X8.032994923857867 Y7.984771573604061 I0.751269035532995 J-0.8883248730964467
G3 X8.00253807106599 Y7.992385786802031 I-0.1802030456852792 J-0.7639593908629441
G3 X7.84517766497462 Y8.00507614213198 I-0.15228426395939088 J-0.7690355329949239
G1 X5.713197969543147 Y8.027918781725887
G3 X5.558375634517766 Y8.01776649746193 I-0.025380710659898477 J-0.7842639593908629
G1 X5.535532994923857 Y8.01269035532995
G3 X5.431472081218274 Y8.119289340101524 I-0.8984771573604061 J-0.7766497461928934
G3 X5.2055837563451774 Y8.279187817258883 I-0.7868020304568528 J-0.8730964467005076
G3 X4.939086294416244 Y8.383248730964466 I-0.5507614213197969 J-1.015228426395939
G3 X4.654822335025381 Y8.418781725888325 I-0.28426395939086296 J-1.116751269035533
G3 X4.210659898477157 Y8.32994923857868 I0 J-1.1548223350253808
G3 X3.83248730964467 Y8.076142131979696 I0.45177664974619286 J-1.0837563451776648
G3 X3.5786802030456855 Y7.697969543147209 I0.83248730964467 J-0.8299492385786802
G3 X3.489847715736041 Y7.253807106598985 I1.0685279187817258 J-0.44416243654822335
G3 X3.5786802030456855 Y6.809644670050762 I1.1573604060913705 J0
G3 X3.83248730964467 Y6.431472081218274 I1.0837563451776648 J0.45177664974619286
G3 X4.210659898477157 Y6.177664974619289 I0.8299492385786802 J0.8299492385786802
G3 X4.654822335025381 Y6.088832487309644 I0.44416243654822335 J1.0659898477157361
G3 X4.931472081218274 Y6.121827411167513 I0 J1.1472081218274113
G3 X5.195431472081218 Y6.223350253807106 I-0.27918781725888325 J1.119289340101523
G3 X5.416243654822335 Y6.375634517766498 I-0.5507614213197969 J1.0380710659898478
G3 X5.520304568527918 Y6.477157360406092 I-0.7842639593908629 J0.8984771573604061
G1 X5.543147208121827 Y6.472081218274112
G3 X5.695431472081218 Y6.459390862944162 I0.14720812182741116 J0.7715736040609138
G1 X7.824873096446701 Y6.436548223350254
G3 X7.9873096446700504 Y6.449238578680204 I0.025380710659898477 J0.7842639593908629
G3 X8.01522842639594 Y6.454314720812183 I-0.13451776649746194 J0.7741116751269035
G3 X8.114213197969542 Y6.3604060913705585 I0.8578680203045685 J0.7791878172588833
G3 X8.32741116751269 Y6.213197969543147 I0.7461928934010152 J0.8578680203045685
G3 X8.578680203045685 Y6.116751269035533 I0.5203045685279188 J0.9847715736040609
G3 X8.845177664974619 Y6.083756345177665 I0.26649746192893403 J1.0736040609137056
G3 X9.192893401015228 Y6.1395939086294415 I0 J1.1065989847715736
G3 X9.50507614213198 Y6.302030456852792 I-0.35025380710659904 J1.0634517766497462
G3 X9.748730964467004 Y6.5456852791878175 I-0.6776649746192893 J0.9187817258883249
G3 X9.860406091370558 Y6.730964467005077 I-0.9213197969543147 J0.6776649746192893
G3 X9.888324873096447 Y6.733502538071066 I-0.05583756345177665 J0.7817258883248732
G3 X10.043147208121827 Y6.766497461928934 I-0.08375634517766498 J0.7791878172588833
G1 X11.583756345177665 Y7.251269035532994
G3 X11.771573604060915 Y7.299492385786802 I-0.10406091370558375 J0.7766497461928934
G3 X11.956852791878172 Y7.406091370558375 I-0.2918781725888325 J0.7284263959390863
G3 X12.109137055837564 Y7.558375634517766 I-0.47715736040609136 J0.6218274111675127
G3 X12.210659898477157 Y7.741116751269036 I-0.6269035532994924 J0.46954314720812185
G3 X12.266497461928934 Y7.974619289340101 I-0.7233502538071066 J0.3020304568527919
G3 X12.269035532994923 Y8.043147208121827 I-0.7817258883248732 J0.06598984771573604
G3 X12.253807106598984 Y8.203045685279188 I-0.7842639593908629 J0
G0 Z3
G0 X7.823604060913706 Y39.551776649746195
G1 Z-0.35 F100
G1 X3.7588832487309642 Y33.01269035532995 F80
G3 X3.708121827411168 Y32.934010152284266 I0.6269035532994924 J-0.47208121827411165
G3 X3.66497461928934 Y32.847715736040605 I0.6802030456852792 J-0.3934010152284264
G3 X3.6015228426395938 Y32.6497461928934 I0.7106598984771574 J-0.33248730964467005
G3 X3.5913705583756346 Y32.51522842639594 I0.7741116751269035 J-0.1319796954314721
G3 X3.5913705583756346 Y32.45685279187817 I0.7842639593908629 J0
G1 X3.1091370558375635 Y25.994923857868024
G3 X3.1040609137055837 Y25.91624365482233 I0.7817258883248732 J-0.07868020304568528
G3 X3.1091370558375635 Y25.83248730964467 I0.7842639593908629 J0
G3 X3.1142131979695433 Y25.80203045685279 I0.7791878172588833 J0.08375634517766498
G3 X3 Y25.69796954314721 I0.7208121827411168 J-0.901015228426396
G3 X2.8350253807106602 Y25.474619289340104 I0.8248730964467005 J-0.7868020304568528
G3 X2.7258883248730963 Y25.21065989847716 I0.9720812182741116 J-0.5532994923857868
G3 X2.687817258883249 Y24.923857868020303 I1.0736040609137056 J-0.28426395939086296
G3 X2.7741116751269033 Y24.494923857868017 I1.116751269035533 J0
G3 X3.020304568527919 Y24.129441624365484 I1.0482233502538072 J0.4365482233502538
G3 X3.385786802030457 Y23.883248730964468 I0.8045685279187818 J0.8045685279187818
G3 X3.817258883248731 Y23.79695431472081 I0.4289340101522843 J1.032994923857868
G3 X4.246192893401015 Y23.883248730964468 I0 J1.116751269035533
G3 X4.611675126903553 Y24.129441624365484 I-0.4365482233502538 J1.0482233502538072
G3 X4.8578680203045685 Y24.494923857868017 I-0.8020304568527918 J0.8020304568527918
G3 X4.944162436548224 Y24.923857868020303 I-1.0304568527918783 J0.4289340101522843
G3 X4.916243654822335 Y25.16751269035533 I-1.0964467005076142 J0
G3 X4.835025380710659 Y25.4010152284264 I-1.0786802030456852 J-0.24619289340101522
G3 X4.713197969543147 Y25.601522842639596 I-1.0228426395939085 J-0.48984771573604063
G3 X4.6395939086294415 Y25.685279187817258 I-0.9340101522842639 J-0.7157360406091371
G3 X4.649746192893401 Y25.715736040609137 I-0.751269035532995 J0.22842639593908629
G3 X4.6725888324873095 Y25.873096446700508 I-0.7588832487309645 J0.1979695431472081
G1 X5.152284263959391 Y32.28426395939086
G1 X8.959390862944161 Y38.40355329949239
G1 X10.47969543147208 Y38.59644670050761
G1 X10.47969543147208 Y38.49746192893401
G3 X10.65482233502538 Y38.32233502538071 I0.17512690355329952 J0
G1 X12.738578680203045 Y38.32233502538071
G3 X12.913705583756345 Y38.49746192893401 I0 J0.17512690355329952
G1 X12.913705583756345 Y40.578680203045685
G3 X12.738578680203045 Y40.753807106598984 I-0.17512690355329952 J0
G1 X10.911167512690357 Y40.753807106598984
G1 X10.65482233502538 Y40.753807106598984
G3 X10.47969543147208 Y40.578680203045685 I0 J-0.17512690355329952
G1 X10.47969543147208 Y40.17766497461929
G1 X8.5 Y39.92893401015229
G3 X8.32741116751269 Y39.911167512690355 I-0.005076142131979696 J-0.7842639593908629
G3 X8.152284263959391 Y39.8502538071066 I0.16751269035532995 J-0.766497461928934
G3 X7.99746192893401 Y39.751269035533 I0.3426395939086294 J-0.7055837563451777
G3 X7.870558375634518 Y39.619289340101524 I0.5 J-0.6065989847715736
G3 X7.84517766497462 Y39.58629441624366 I0.6192893401015229 J-0.48223350253807107
G3 X7.822335025380712 Y39.5507614213198 I0.6421319796954316 J-0.44923857868020306
G0 Z3
G0 X27.16979695431472 Y29.96954314720812
G1 Z-0.35 F100
G1 X25.941624365482234 Y36.253807106598984 F80
G3 X26.14467005076142 Y36.44670050761421 I-1.0837563451776648 J1.33248730964467
G3 X26.370558375634516 Y36.76903553299492 I-1.266497461928934 J1.1218274111675126
G3 X26.51522842639594 Y37.1497461928934 I-1.4619289340101524 J0.7842639593908629
G3 X26.565989847715734 Y37.5507614213198 I-1.5939086294416245 J0.4010152284263959
G3 X26.439086294416242 Y38.18781725888325 I-1.6548223350253808 J0
G3 X26.073604060913706 Y38.733502538071065 I-1.5609137055837563 J-0.6522842639593909
G3 X25.527918781725887 Y39.098984771573605 I-1.1979695431472082 J-1.1979695431472082
G3 X24.890862944162436 Y39.2258883248731 I-0.6370558375634517 J-1.5279187817258881
G3 X24.253807106598984 Y39.098984771573605 I0 J-1.6548223350253808
G3 X23.70812182741117 Y38.733502538071065 I0.6522842639593909 J-1.5609137055837563
G3 X23.34263959390863 Y38.18781725888325 I1.1954314720812182 J-1.1954314720812182
G3 X23.215736040609137 Y37.5507614213198 I1.5279187817258881 J-0.6370558375634517
G1 X23.215736040609137 Y37.5507614213198
G1 X23.215736040609137 Y37.5507614213198
G3 X23.31218274111675 Y36.99746192893401 I1.652284263959391 J0
G3 X23.588832487309645 Y36.50253807106599 I1.5837563451776648 J0.5634517766497462
G3 X24.005076142131976 Y36.13197969543147 I1.3248730964467004 J1.0710659898477157
G3 X24.403553299492383 Y35.9492385786802 I0.8883248730964467 J1.4111675126903553
G1 X25.573604060913702 Y29.956852791878173
G3 X25.418781725888326 Y29.784263959390863 I0.020304568527918784 J-0.17512690355329952
G1 X25.418781725888326 Y28.96954314720812
G1 X25.395939086294415 Y28.761421319796952
G1 X25.393401015228427 Y28.741116751269033
G1 X25.395939086294415 Y28.720812182741117
G1 X25.418781725888326 Y28.51269035532995
G1 X25.418781725888326 Y27.700507614213198
G3 X25.593908629441625 Y27.5253807106599 I0.17512690355329952 J0
G1 X25.814720812182742 Y27.5253807106599
G1 X25.786802030456855 Y24.53553299492386
G1 X25.055837563451778 Y24.53553299492386
G3 X24.880710659898476 Y24.383248730964468 I0 J-0.17512690355329952
G1 X19.563451776649746 Y26.53299492385787
G3 X19.413705583756343 Y26.578680203045685 I-0.30456852791878175 J-0.7233502538071066
G3 X19.3756345177665 Y26.58375634517767 I-0.15482233502538073 J-0.7690355329949239
G3 X19.261421319796955 Y26.774111675126903 I-1.0634517766497462 J-0.5126903553299492
G3 X19.027918781725887 Y27.01015228426396 I-0.916243654822335 J-0.6802030456852792
G3 X18.72335025380711 Y27.170050761421322 I-0.6522842639593909 J-0.8730964467005076
G3 X18.390862944162436 Y27.223350253807105 I-0.33248730964467005 J-0.9898477157360407
G3 X18.35786802030457 Y27.22081218274112 I0 J-0.17512690355329952
G1 X18.14720812182741 Y27.18020304568528
G3 X18.106598984771573 Y27.21827411167513 I-0.5558375634517766 J-0.5532994923857868
G3 X17.96954314720812 Y27.314720812182742 I-0.5152284263959391 J-0.5913705583756345
G1 X15.720812182741117 Y28.631979695431472
G3 X15.591370558375635 Y28.695431472081218 I-0.40609137055837563 J-0.6725888324873096
G1 X15.591370558375635 Y29.2994923857868
G1 X15.591370558375635 Y29.553299492385786
G3 X15.416243654822335 Y29.728426395939085 I-0.17512690355329952 J0
G1 X13.33502538071066 Y29.728426395939085
G3 X13.15989847715736 Y29.553299492385786 I0 J-0.17512690355329952
G1 X13.15989847715736 Y27.46954314720812
G3 X13.33502538071066 Y27.294416243654823 I0.17512690355329952 J0
G1 X14.901015228426395 Y27.294416243654823
G3 X14.926395939086294 Y27.279187817258883 I0.4213197969543147 J0.6624365482233502
G1 X17.17258883248731 Y25.964467005076145
G3 X17.3248730964467 Y25.888324873096447 I0.41878172588832485 J0.6624365482233502
G3 X17.368020304568528 Y25.875634517766496 I0.26649746192893403 J0.7385786802030457
G3 X17.461928934010153 Y25.644670050761423 I1.0228426395939085 J0.2868020304568528
G3 X17.697969543147206 Y25.35532994923858 I0.9416243654822334 J0.5253807106598986
G3 X18.02030456852792 Y25.162436548223347 I0.6979695431472082 J0.8045685279187818
G3 X18.390862944162436 Y25.096446700507613 I0.3680203045685279 J0.9822335025380711
G3 X18.527918781725887 Y25.106598984771576 I0 J1
G3 X18.66243654822335 Y25.13451776649746 I-0.13959390862944163 J1.017766497461929
G3 X18.786802030456855 Y25.17766497461929 I-0.28426395939086296 J1.0203045685279188
G3 X18.82233502538071 Y25.15736040609137 I0.416243654822335 J0.6649746192893401
G3 X18.972081218274113 Y25.078680203045685 I0.4365482233502538 J0.6522842639593909
G1 X24.880710659898476 Y22.690355329949238
G1 X24.880710659898476 Y21.360406091370557
G3 X25.055837563451778 Y21.18527918781726 I0.17512690355329952 J0
G1 X28.055837563451774 Y21.18527918781726
G3 X28.230964467005077 Y21.360406091370557 I0 J0.17512690355329952
G1 X28.230964467005077 Y23.860406091370557
G1 X28.230964467005077 Y24.360406091370557
G3 X28.055837563451774 Y24.53553299492386 I-0.17512690355329952 J0
G1 X27.35532994923858 Y24.53553299492386
G1 X27.383248730964468 Y27.5253807106599
G1 X27.67766497461929 Y27.5253807106599
G3 X27.85279187817259 Y27.700507614213198 I0 J0.17512690355329952
G1 X27.85279187817259 Y29.527918781725887
G1 X27.85279187817259 Y29.784263959390863
G3 X27.67766497461929 Y29.959390862944165 I-0.17512690355329952 J0
G1 X27.172588832487307 Y29.959390862944165
G1 X27.170050761421322 Y29.96954314720812
G0 Z3
G0 X19.918274111675128 Y29.76751269035533
G1 Z-0.35 F100
G1 X20.451776649746193 Y35.8756345177665 F80
G1 X21.30964467005076 Y35.8756345177665
G3 X21.484771573604064 Y36.0507614213198 I0 J0.17512690355329952
G1 X21.484771573604064 Y39.0507614213198
G3 X21.30964467005076 Y39.2258883248731 I-0.17512690355329952 J0
G1 X18.809644670050762 Y39.2258883248731
G1 X18.309644670050762 Y39.2258883248731
G3 X18.13705583756345 Y39.0507614213198 I0 J-0.17512690355329952
G1 X18.13705583756345 Y38.223350253807105
G1 X12.743654822335024 Y37.85532994923858
G3 X12.591370558375633 Y37.83502538071066 I0.03299492385786802 J-0.7842639593908629
G1 X12.576142131979696 Y37.82994923857868
G3 X12.472081218274111 Y37.931472081218274 I-0.9187817258883249 J-0.8629441624365481
G3 X12.243654822335026 Y38.08121827411168 I-0.7893401015228427 J-0.9365482233502538
G3 X11.977157360406093 Y38.18020304568528 I-0.5482233502538071 J-1.0634517766497462
G3 X11.69796954314721 Y38.21573604060914 I-0.2817258883248731 J-1.1548223350253808
G3 X11.233502538071065 Y38.121827411167516 I0 J-1.2055837563451777
G3 X10.837563451776651 Y37.85786802030457 I0.47208121827411165 J-1.131979695431472
G3 X10.573604060913706 Y37.46192893401015 I0.868020304568528 J-0.8654822335025381
G3 X10.47969543147208 Y36.99746192893401 I1.114213197969543 J-0.46446700507614214
G3 X10.573604060913706 Y36.535532994923855 I1.2055837563451777 J0
G3 X10.837563451776651 Y36.13959390862944 I1.131979695431472 J0.46954314720812185
G3 X11.233502538071065 Y35.8756345177665 I0.8654822335025381 J0.8654822335025381
G3 X11.69796954314721 Y35.78172588832487 I0.46446700507614214 J1.114213197969543
G3 X12.017766497461928 Y35.8248730964467 I0 J1.1928934010152283
G3 X12.31472081218274 Y35.95431472081218 I-0.3223350253807106 J1.1573604060913705
G3 X12.560913705583756 Y36.1497461928934 I-0.6345177664974619 J1.0532994923857868
G3 X12.680203045685278 Y36.29187817258883 I-0.8959390862944162 J0.8730964467005076
G1 X12.697969543147208 Y36.29187817258883
G3 X12.845177664974619 Y36.289340101522846 I0.07868020304568528 J0.7817258883248732
G1 X18.13705583756345 Y36.6497461928934
G1 X18.13705583756345 Y36.0507614213198
G3 X18.309644670050762 Y35.8756345177665 I0.17512690355329952 J0
G1 X18.875634517766496 Y35.8756345177665
G1 X18.35532994923858 Y29.903553299492387
G3 X18.35279187817259 Y29.837563451776653 I0.7817258883248732 J-0.06598984771573604
G3 X18.35786802030457 Y29.746192893401012 I0.7842639593908629 J0
G3 X18.20812182741117 Y29.621827411167516 I0.7309644670050762 J-1.015228426395939
G3 X18.00507614213198 Y29.373096446700508 I0.8401015228426396 J-0.8984771573604061
G3 X17.870558375634516 Y29.068527918781726 I1.017766497461929 J-0.6345177664974619
G3 X17.8248730964467 Y28.741116751269033 I1.1446700507614214 J-0.32741116751269034
G3 X17.916243654822335 Y28.279187817258883 I1.2055837563451777 J0
G3 X18.18274111675127 Y27.883248730964464 I1.131979695431472 J0.47208121827411165
G3 X18.578680203045685 Y27.616751269035532 I0.8654822335025381 J0.868020304568528
G3 X19.04060913705584 Y27.5253807106599 I0.46446700507614214 J1.114213197969543
G3 X19.50507614213198 Y27.616751269035532 I0 J1.2055837563451777
G3 X19.901015228426395 Y27.883248730964464 I-0.46954314720812185 J1.131979695431472
G3 X20.16497461928934 Y28.279187817258883 I-0.8654822335025381 J0.8654822335025381
G3 X20.256345177664976 Y28.741116751269033 I-1.114213197969543 J0.46446700507614214
G3 X20.22335025380711 Y29.017766497461928 I-1.1878172588832487 J0
G3 X20.126903553299492 Y29.28172588832487 I-1.1624365482233503 J-0.27918781725888325
G3 X19.97969543147208 Y29.50507614213198 I-1.0913705583756346 J-0.5558375634517766
G3 X19.888324873096444 Y29.611675126903553 I-1 J-0.7690355329949239
G3 X19.918781725888326 Y29.766497461928935 I-0.751269035532995 J0.22588832487309643
G0 Z3
G0 X22.34771573604061 Y10.156091370558375
G1 Z-0.35 F100
G1 X22.373096446700508 Y15.083756345177665 F80
G1 X22.373096446700508 Y15.104060913705585
G1 X22.370558375634516 Y15.121827411167512
G3 X22.34263959390863 Y15.307106598984772 I-0.7842639593908629 J-0.027918781725888325
G3 X22.27157360406091 Y15.47715736040609 I-0.7563451776649746 J-0.21065989847715735
G3 X22.16243654822335 Y15.626903553299492 I-0.6852791878172588 J-0.383248730964467
G3 X22.032994923857867 Y15.741116751269036 I-0.5761421319796954 J-0.5329949238578681
G1 X19.631979695431472 Y17.85786802030457
G3 X19.50507614213198 Y17.951776649746193 I-0.5304568527918782 J-0.5786802030456852
G1 X19.492385786802032 Y17.961928934010153
G1 X19.492385786802032 Y17.967005076142133
G3 X19.403553299492387 Y18.408629441624363 I-1.1548223350253808 J0
G3 X19.149746192893403 Y18.789340101522843 I-1.0837563451776648 J-0.45177664974619286
G3 X18.769035532994923 Y19.043147208121827 I-0.8299492385786802 J-0.8299492385786802
G3 X18.3248730964467 Y19.131979695431472 I-0.44416243654822335 J-1.0685279187817258
G3 X17.880710659898476 Y19.043147208121827 I0 J-1.1573604060913705
G3 X17.502538071065988 Y18.789340101522843 I0.45177664974619286 J-1.0837563451776648
G3 X17.248730964467004 Y18.408629441624363 I0.8299492385786802 J-0.8299492385786802
G3 X17.15989847715736 Y17.967005076142133 I1.0659898477157361 J-0.44416243654822335
G3 X17.248730964467004 Y17.52284263959391 I1.1548223350253808 J0
G3 X17.502538071065988 Y17.14213197969543 I1.0837563451776648 J0.45177664974619286
G3 X17.880710659898476 Y16.888324873096447 I0.8299492385786802 J0.8299492385786802
G3 X18.3248730964467 Y16.799492385786802 I0.44416243654822335 J1.0659898477157361
G1 X18.34771573604061 Y16.80203045685279
G1 X18.46954314720812 Y16.81725888324873
G3 X18.48477157360406 Y16.79695431472081 I0.6345177664974619 J0.4593908629441624
G3 X18.591370558375637 Y16.685279187817258 I0.6192893401015229 J0.48223350253807107
G1 X20.80203045685279 Y14.733502538071066
G1 X20.78172588832487 Y10.824873096446701
G1 X17.423857868020306 Y10.601522842639595
G3 X17.263959390862944 Y10.578680203045685 I0.03299492385786802 J-0.7842639593908629
G3 X17.233502538071065 Y10.568527918781726 I0.19289340101522845 J-0.7614213197969544
G3 X17.14720812182741 Y10.644670050761423 I-0.8071065989847716 J-0.8553299492385786
G3 X16.946700507614214 Y10.769035532994923 I-0.6954314720812182 J-0.8959390862944162
G3 X16.710659898477157 Y10.850253807106597 I-0.48223350253807107 J-0.9949238578680203
G3 X16.467005076142133 Y10.878172588832486 I-0.24619289340101522 J-1.0685279187817258
G3 X16.038071065989847 Y10.791878172588834 I0 J-1.119289340101523
G3 X15.670050761421319 Y10.548223350253807 I0.4365482233502538 J-1.0482233502538072
G3 X15.423857868020306 Y10.180203045685278 I0.8020304568527918 J-0.8020304568527918
G3 X15.34010152284264 Y9.751269035532994 I1.0304568527918783 J-0.4289340101522843
G1 X15.34010152284264 Y9.751269035532994
G3 X15.423857868020306 Y9.32233502538071 I1.116751269035533 J0
G3 X15.670050761421319 Y8.954314720812183 I1.0482233502538072 J0.4365482233502538
G3 X16.038071065989847 Y8.710659898477157 I0.8045685279187818 J0.8045685279187818
G3 X16.467005076142133 Y8.624365482233502 I0.4289340101522843 J1.0304568527918783
G3 X16.748730964467004 Y8.65989847715736 I0 J1.1116751269035532
G3 X17.012690355329948 Y8.766497461928934 I-0.28426395939086296 J1.0812182741116751
G3 X17.236040609137056 Y8.931472081218274 I-0.5583756345177665 J0.9923857868020304
G3 X17.33756345177665 Y9.040609137055837 I-0.7893401015228427 J0.8375634517766497
G3 X17.368020304568528 Y9.038071065989847 I0.11928934010152284 J0.7766497461928934
G3 X17.5253807106599 Y9.035532994923859 I0.08883248730964467 J0.7791878172588833
G1 X21.581218274111677 Y9.30710659898477
G3 X21.631979695431475 Y9.309644670050762 I-0.022842639593908632 J0.7842639593908629
G3 X21.680203045685282 Y9.317258883248732 I-0.07106598984771574 J0.7817258883248732
G3 X21.715736040609137 Y9.32233502538071 I-0.11928934010152284 J0.7766497461928934
G3 X21.748730964467008 Y9.32994923857868 I-0.15228426395939088 J0.7690355329949239
G3 X21.779187817258887 Y9.33756345177665 I-0.1802030456852792 J0.7639593908629441
G3 X21.81218274111675 Y9.347715736040609 I-0.21319796954314718 J0.7563451776649746
G3 X21.847715736040605 Y9.360406091370558 I-0.24619289340101522 J0.7436548223350253
G3 X21.883248730964468 Y9.375634517766498 I-0.28426395939086296 J0.7309644670050762
G3 X22.088832487309645 Y9.50761421319797 I-0.3197969543147208 J0.7157360406091371
G3 X22.243654822335024 Y9.695431472081218 I-0.5228426395939086 J0.583756345177665
G3 X22.33248730964467 Y9.921319796954315 I-0.6776649746192893 J0.3959390862944162
G3 X22.350253807106597 Y10.093908629441623 I-0.766497461928934 J0.1700507614213198
G3 X22.34771573604061 Y10.15482233502538 I-0.7842639593908629 J0
G0 Z3
G0 X8.262182741116751 Y23.702030456852793
G1 Z-0.35 F100
G1 X6.802030456852792 Y19.855329949238577 F80
G3 X6.761421319796954 Y19.753807106598984 I0.7081218274111676 J-0.3401015228426396
G3 X6.733502538071066 Y19.64213197969543 I0.7461928934010152 J-0.23857868020304568
G3 X6.723350253807107 Y19.558375634517766 I0.7715736040609138 J-0.13959390862944163
G3 X6.720812182741117 Y19.502538071065988 I0.7817258883248732 J-0.05583756345177665
G1 X6.723350253807107 Y19.482233502538072
G1 X6.65228426395939 Y16.85786802030457
G1 X6.649746192893401 Y16.83756345177665
G3 X6.662436548223351 Y16.705583756345177 I0.7842639593908629 J0
G1 X6.66497461928934 Y16.68781725888325
G3 X6.553299492385786 Y16.581218274111677 I0.7563451776649746 J-0.9137055837563451
G3 X6.3883248730964475 Y16.35279187817259 I0.8604060913705585 J-0.8020304568527918
G3 X6.279187817258883 Y16.081218274111674 I1.0101522842639594 J-0.5634517766497462
G3 X6.241116751269036 Y15.791878172588834 I1.114213197969543 J-0.2893401015228426
G3 X6.309644670050761 Y15.403553299492385 I1.1522842639593909 J0
G3 X6.50253807106599 Y15.058375634517766 I1.098984771573604 J0.3934010152284264
G3 X6.7969543147208125 Y14.802030456852792 I0.9137055837563451 J0.7461928934010152
G3 X7.030456852791879 Y14.690355329949238 I0.6116751269035533 J0.9898477157360407
G1 X7.035532994923858 Y14.67005076142132
G3 X7.0812182741116745 Y14.52284263959391 I0.7690355329949239 J0.15736040609137056
G1 X7.736040609137056 Y12.931472081218274
G3 X7.809644670050762 Y12.784263959390863 I0.7335025380710659 J0.27918781725888325
G3 X7.824873096446701 Y12.761421319796955 I0.6598984771573604 J0.42385786802030456
G1 X7.814720812182742 Y12.738578680203045
G3 X7.7639593908629445 Y12.598984771573605 I1.0279187817258884 J-0.4593908629441624
G3 X7.730964467005076 Y12.446700507614212 I1.050761421319797 J-0.31218274111675126
G3 X7.718274111675127 Y12.291878172588833 I1.0609137055837563 J-0.15482233502538073
G3 X7.804568527918781 Y11.860406091370558 I1.116751269035533 J0
G3 X8.050761421319796 Y11.49492385786802 I1.0482233502538072 J0.4365482233502538
G3 X8.416243654822335 Y11.248730964467004 I0.8020304568527918 J0.8045685279187818
G3 X8.845177664974619 Y11.16497461928934 I0.4289340101522843 J1.032994923857868
G3 X9.276649746192893 Y11.248730964467004 I0 J1.116751269035533
G3 X9.642131979695431 Y11.49492385786802 I-0.4365482233502538 J1.0482233502538072
G3 X9.888324873096447 Y11.860406091370558 I-0.8020304568527918 J0.8020304568527918
G3 X9.974619289340103 Y12.291878172588833 I-1.0304568527918783 J0.4289340101522843
G3 X9.911167512690355 Y12.65989847715736 I-1.1116751269035532 J0
G3 X9.728426395939087 Y12.98730964467005 I-1.0609137055837563 J-0.3730964467005076
G3 X9.456852791878173 Y13.233502538071066 I-0.8934010152284264 J-0.7106598984771574
G3 X9.241116751269034 Y13.342639593908629 I-0.6142131979695432 J-0.9492385786802031
G3 X9.236040609137056 Y13.373096446700508 I-0.7741116751269035 J-0.1319796954314721
G3 X9.187817258883248 Y13.522842639593907 I-0.766497461928934 J-0.16243654822335027
G1 X8.532994923857869 Y15.119289340101522
G3 X8.459390862944163 Y15.258883248730966 I-0.7284263959390863 J-0.2893401015228426
G1 X8.449238578680202 Y15.274111675126905
G3 X8.464467005076141 Y15.304568527918782 I-1.0659898477157361 J0.5380710659898478
G3 X8.522842639593907 Y15.456852791878173 I-1.0482233502538072 J0.48984771573604063
G3 X8.560913705583756 Y15.621827411167512 I-1.0913705583756346 J0.3350253807106599
G3 X8.573604060913706 Y15.791878172588834 I-1.1269035532994924 J0.1700507614213198
G3 X8.540609137055839 Y16.065989847715734 I-1.1446700507614214 J0
G3 X8.441624365482234 Y16.3248730964467 I-1.116751269035533 J-0.2766497461928934
G3 X8.291878172588833 Y16.543147208121827 I-1.0406091370558377 J-0.5456852791878173
G3 X8.195431472081218 Y16.64213197969543 I-0.9086294416243655 J-0.7817258883248732
G1 X8.200507614213198 Y16.65989847715736
G3 X8.220812182741117 Y16.81725888324873 I-0.7639593908629441 J0.17766497461928935
G1 X8.289340101522843 Y19.350253807106597
G1 X9.728426395939087 Y23.144670050761423
G3 X9.774111675126903 Y23.30710659898477 I-0.7309644670050762 J0.2868020304568528
G3 X9.779187817258883 Y23.347715736040612 I-0.7741116751269035 J0.1218274111675127
G3 X9.954314720812183 Y23.449238578680202 I-0.45685279187817257 J0.9771573604060914
G3 X10.18527918781726 Y23.68020304568528 I-0.6319796954314721 J0.8730964467005076
G3 X10.342639593908629 Y23.977157360406093 I-0.8477157360406091 J0.6319796954314721
G3 X10.395939086294417 Y24.30710659898477 I-0.9898477157360407 J0.3299492385786802
G3 X10.368020304568528 Y24.545685279187815 I-1.0355329949238579 J0
G3 X10.284263959390863 Y24.774111675126903 I-1.015228426395939 J-0.24111675126903553
G3 X10.15989847715736 Y24.96700507614213 I-0.9568527918781726 J-0.47969543147208127
G3 X10.086294416243655 Y25.050761421319798 I-0.8604060913705585 J-0.6979695431472082
G3 X10.093908629441623 Y25.091370558375633 I-0.7614213197969544 J0.18781725888324874
G3 X10.109137055837563 Y25.238578680203045 I-0.7715736040609138 J0.14720812182741116
G1 X10.109137055837563 Y25.258883248730967
G1 X10.091370558375633 Y27.418781725888323
G1 X10.091370558375633 Y27.418781725888323
G3 X10.076142131979696 Y27.573604060913706 I-0.7842639593908629 J0
G3 X10.192893401015228 Y27.69289340101523 I-0.8197969543147209 J0.9238578680203046
G3 X10.362944162436548 Y27.931472081218274 I-0.9060913705583756 J0.8299492385786802
G3 X10.474619289340101 Y28.21319796954315 I-1.0609137055837563 J0.583756345177665
G3 X10.51269035532995 Y28.51269035532995 I-1.16751269035533 J0.29949238578680204
G3 X10.418781725888325 Y28.9746192893401 I-1.2055837563451777 J0
G3 X10.15482233502538 Y29.37055837563452 I-1.1294416243654823 J-0.47208121827411165
G3 X9.758883248730964 Y29.634517766497463 I-0.8654822335025381 J-0.868020304568528
G3 X9.294416243654823 Y29.728426395939085 I-0.46446700507614214 J-1.114213197969543
G3 X8.83248730964467 Y29.634517766497463 I0 J-1.2081218274111676
G3 X8.436548223350254 Y29.37055837563452 I0.46954314720812185 J-1.1294416243654823
G3 X8.17258883248731 Y28.9746192893401 I0.8654822335025381 J-0.8654822335025381
G3 X8.078680203045685 Y28.51269035532995 I1.1116751269035532 J-0.46446700507614214
G3 X8.119289340101524 Y28.208121827411166 I1.2005076142131978 J0
G3 X8.233502538071066 Y27.921319796954315 I1.16751269035533 J0.3071065989847716
G3 X8.411167512690355 Y27.682741116751266 I1.0685279187817258 J0.6015228426395939
G3 X8.532994923857869 Y27.568527918781726 I0.9035532994923857 J0.850253807106599
G1 X8.532994923857869 Y27.555837563451778
G3 X8.52030456852792 Y27.421319796954315 I0.7741116751269035 J-0.13451776649746194
G1 X8.52030456852792 Y27.406091370558375
G1 X8.538071065989847 Y25.243654822335024
G1 X8.538071065989847 Y25.238578680203045
G3 X8.555837563451776 Y25.078680203045685 I0.7842639593908629 J0
G3 X8.565989847715736 Y25.038071065989847 I0.7690355329949239 J0.1598984771573604
G3 X8.49492385786802 Y24.959390862944165 I0.799492385786802 J-0.7690355329949239
G3 X8.373096446700508 Y24.766497461928935 I0.8375634517766497 J-0.6649746192893401
G3 X8.294416243654823 Y24.54314720812183 I0.9365482233502538 J-0.4619289340101523
G3 X8.266497461928935 Y24.30710659898477 I1.0076142131979695 J-0.23604060913705582
G3 X8.276649746192893 Y24.16497461928934 I1.00253807106599 J0
G3 X8.307106598984772 Y24.022842639593907 I1.017766497461929 J0.14720812182741116
G3 X8.352791878172589 Y23.895939086294415 I1.017766497461929 J0.29441624365482233
G1 X8.357868020304569 Y23.88578680203046
G3 X8.33756345177665 Y23.85279187817259 I0.6395939086294417 J-0.45431472081218277
G3 X8.261421319796954 Y23.70304568527919 I0.6598984771573604 J-0.42385786802030456
G0 Z3
G0 X29.168527918781727 Y39.89771573604061
G1 Z-0.35 F100
G1 X29.525380710659896 Y39.89847715736041 F80
G3 X29.64467005076142 Y39.90609137055837 I0 J0.83248730964467
G3 X29.730964467005077 Y39.92639593908629 I-0.07106598984771574 J0.4847715736040609
G3 X29.804568527918782 Y39.96192893401015 I-0.12436548223350254 J0.37055837563451777
G3 X29.86040609137056 Y40.00253807106599 I-0.15736040609137056 J0.2690355329949239
G3 X29.903553299492387 Y40.055837563451774 I-0.20304568527918782 J0.21319796954314718
G3 X29.939086294416242 Y40.121827411167516 I-0.27918781725888325 J0.18274111675126906
G3 X29.959390862944165 Y40.2005076142132 I-0.3857868020304569 J0.1446700507614213
G3 X29.96700507614213 Y40.31218274111676 I-0.6903553299492386 J0.1116751269035533
G3 X29.959390862944165 Y40.42131979695432 I-0.6878172588832487 J0
G3 X29.939086294416242 Y40.5 I-0.4010152284263959 J-0.06598984771573604
G3 X29.903553299492387 Y40.56598984771574 I-0.31218274111675126 J-0.11675126903553298
G3 X29.86040609137056 Y40.61675126903553 I-0.24873096446700507 J-0.16243654822335027
G3 X29.804568527918782 Y40.659898477157356 I-0.21319796954314718 J-0.22588832487309643
G3 X29.730964467005077 Y40.692893401015226 I-0.1979695431472081 J-0.3350253807106599
G3 X29.64467005076142 Y40.713197969543145 I-0.15736040609137056 J-0.46446700507614214
G3 X29.525380710659896 Y40.723350253807105 I-0.1218274111675127 J-0.8223350253807106
G1 X29.16751269035533 Y40.723350253807105
G1 X29.16751269035533 Y39.89847715736041
G0 Z3
G0 X28.80685279187817 Y40.90964467005076
G1 Z-0.35 F100
G1 X28.807106598984774 Y39.710659898477154 F80
G3 X28.939086294416242 Y39.54060913705584 I0.17512690355329952 J0
G3 X28.982233502538072 Y39.535532994923855 I0.043147208121827416 J0.1700507614213198
G1 X29.525380710659896 Y39.535532994923855
G3 X29.697969543147206 Y39.54822335025381 I0 J1.1903553299492384
G3 X29.769035532994927 Y39.56345177664974 I-0.12436548223350254 J0.8451776649746192
G3 X29.84771573604061 Y39.58375634517766 I-0.1954314720812183 J0.83248730964467
G3 X29.98984771573604 Y39.6497461928934 I-0.24111675126903553 J0.7157360406091371
G3 X30.109137055837564 Y39.74111675126903 I-0.3401015228426396 J0.5786802030456852
G3 X30.20812182741117 Y39.857868020304565 I-0.44923857868020306 J0.47461928934010156
G3 X30.276649746192895 Y39.994923857868024 I-0.583756345177665 J0.3807106598984772
G3 X30.314720812182742 Y40.14213197969543 I-0.7258883248730964 J0.2690355329949239
G3 X30.329949238578678 Y40.31218274111676 I-1.0456852791878173 J0.1700507614213198
G3 X30.314720812182742 Y40.47969543147208 I-1.0482233502538072 J0
G3 X30.276649746192895 Y40.62690355329949 I-0.7614213197969544 J-0.12436548223350254
G3 X30.20812182741117 Y40.76395939086295 I-0.6497461928934011 J-0.2436548223350254
G3 X30.109137055837564 Y40.880710659898476 I-0.5482233502538071 J-0.3604060913705584
G3 X29.98984771573604 Y40.97208121827411 I-0.4619289340101523 J-0.4873096446700508
G3 X29.84771573604061 Y41.03553299492386 I-0.383248730964467 J-0.6497461928934011
G3 X29.77157360406091 Y41.05837563451777 I-0.27411167512690354 J-0.8096446700507615
G3 X29.697969543147206 Y41.07106598984772 I-0.1979695431472081 J-0.83248730964467
G3 X29.525380710659896 Y41.08375634517767 I-0.17258883248730966 J-1.1751269035532994
G1 X28.982233502538072 Y41.08375634517767
G3 X28.921319796954315 Y41.0736040609137 I0 J-0.17512690355329952
G3 X28.807106598984774 Y40.90862944162437 I0.05837563451776649 J-0.1649746192893401
G0 Z3
G0 X28.741116751269036 Y38.278426395939086
G1 Z-0.35 F100
G1 X28.807106598984774 Y38.27918781725889 F80
G1 X28.807106598984774 Y39.370558375634516
G2 X28.939086294416242 Y39.54060913705584 I0.17512690355329952 J0
G2 X28.982233502538072 Y39.545685279187815 I0.043147208121827416 J-0.1700507614213198
G1 X29.525380710659896 Y39.545685279187815
G3 X29.763959390862947 Y39.56091370558376 I0 J1.885786802030457
G1 X29.769035532994927 Y39.56345177664974
G3 X29.939086294416242 Y39.598984771573605 I-0.1446700507614213 J1.0888324873096447
G3 X30.096446700507613 Y39.66243654822335 I-0.24111675126903553 J0.8096446700507615
G3 X30.205583756345177 Y39.74111675126903 I-0.27411167512690354 J0.5126903553299492
G3 X30.294416243654823 Y39.84010152284264 I-0.3553299492385787 J0.40609137055837563
G3 X30.36294416243655 Y39.96700507614213 I-0.49746192893401014 J0.3426395939086294
G3 X30.4010152284264 Y40.111675126903556 I-0.6878172588832487 J0.2639593908629442
G3 X30.418781725888326 Y40.31218274111676 I-1.2106598984771573 J0.20050761421319796
G3 X30.4010152284264 Y40.51015228426395 I-1.2030456852791878 J0
G3 X30.36294416243655 Y40.652284263959395 I-0.7182741116751269 J-0.11928934010152284
G3 X30.296954314720814 Y40.77918781725888 I-0.5609137055837563 J-0.2182741116751269
G3 X30.20812182741117 Y40.878172588832484 I-0.4467005076142132 J-0.30964467005076146
G3 X30.093908629441625 Y40.95685279187818 I-0.3883248730964467 J-0.434010152284264
G3 X29.939086294416242 Y41.02030456852792 I-0.3984771573604061 J-0.7385786802030457
G3 X29.77157360406091 Y41.05837563451777 I-0.3147208121827411 J-1.0431472081218274
G1 X29.763959390862947 Y41.05837563451777
G3 X29.525380710659896 Y41.0736040609137 I-0.23857868020304568 J-1.850253807106599
G1 X28.921319796954315 Y41.0736040609137
G1 X28.741116751269033 Y41.0736040609137
G1 X28.741116751269033 Y38.27918781725889
G0 Z3
G0 X28.379695431472083 Y41.26015228426396
G1 Z-0.35 F100
G1 X28.380710659898476 Y38.09137055837563 F80
G3 X28.555837563451778 Y37.91624365482234 I0.17512690355329952 J0
G1 X28.99238578680203 Y37.91624365482234
G3 X29.16751269035533 Y38.09137055837563 I0 J0.17512690355329952
G1 X29.16751269035533 Y39.18527918781726
G1 X29.525380710659896 Y39.18527918781726
G3 X29.809644670050762 Y39.203045685279186 I0 J2.248730964467005
G3 X30.043147208121827 Y39.253807106598984 I-0.18527918781725888 J1.4492385786802031
G3 X30.266497461928935 Y39.34517766497462 I-0.3451776649746193 J1.1573604060913705
G3 X30.444162436548226 Y39.46954314720812 I-0.44416243654822335 J0.83248730964467
G3 X30.593908629441625 Y39.63451776649747 I-0.5913705583756345 J0.6751269035532994
G3 X30.69796954314721 Y39.83756345177665 I-0.7944162436548223 J0.5482233502538071
G3 X30.758883248730964 Y40.0507614213198 I-1.0253807106598984 J0.3959390862944162
G3 X30.779187817258883 Y40.31218274111676 I-1.5710659898477157 J0.25888324873096447
G3 X30.758883248730964 Y40.568527918781726 I-1.5685279187817258 J0
G3 X30.69796954314721 Y40.78426395939086 I-1.0761421319796955 J-0.1802030456852792
G3 X30.593908629441625 Y40.984771573604064 I-0.8984771573604061 J-0.3477157360406091
G3 X30.446700507614214 Y41.147208121827404 I-0.7411167512690355 J-0.5126903553299492
G3 X30.266497461928935 Y41.2741116751269 I-0.6269035532994924 J-0.7055837563451777
G3 X30.043147208121827 Y41.368020304568525 I-0.5710659898477157 J-1.0583756345177666
G3 X29.812182741116754 Y41.41624365482233 I-0.41878172588832485 J-1.3883248730964468
G3 X29.525380710659896 Y41.434010152284266 I-0.2868020304568528 J-2.2106598984771573
G1 X28.555837563451778 Y41.434010152284266
G3 X28.380710659898476 Y41.25888324873096 I0 J-0.17512690355329952
G0 Z3
G0 X3.2096446700507615 Y13.63984771573604
G1 Z-0.35 F100
G1 X3.708121827411168 Y10.695431472081218 F80
G3 X3.748730964467005 Y10.545685279187818 I0.7741116751269035 J0.12944162436548223
G1 X3.753807106598985 Y10.530456852791879
G3 X3.6954314720812182 Y10.451776649746193 I0.9213197969543147 J-0.7538071065989848
G3 X3.586294416243655 Y10.253807106598984 I0.9593908629441625 J-0.6624365482233502
G3 X3.5152284263959395 Y10.027918781725889 I1.0558375634517767 J-0.4593908629441624
G3 X3.489847715736041 Y9.794416243654823 I1.1294416243654823 J-0.23350253807106597
G3 X3.5786802030456855 Y9.350253807106599 I1.1548223350253808 J0
G3 X3.83248730964467 Y8.969543147208123 I1.0837563451776648 J0.45177664974619286
G3 X4.210659898477157 Y8.718274111675127 I0.8299492385786802 J0.8299492385786802
G3 X4.654822335025381 Y8.629441624365482 I0.44416243654822335 J1.0659898477157361
G3 X4.934010152284264 Y8.66243654822335 I0 J1.1497461928934012
G3 X5.197969543147209 Y8.763959390862944 I-0.2817258883248731 J1.119289340101523
G3 X5.4213197969543145 Y8.918781725888325 I-0.5532994923857868 J1.0355329949238579
G3 X5.522842639593909 Y9.02030456852792 I-0.7893401015228427 J0.8934010152284264
G1 X5.540609137055838 Y9.01522842639594
G3 X5.695431472081218 Y8.99746192893401 I0.1649746192893401 J0.766497461928934
G1 X7.824873096446701 Y8.977157360406093
G3 X7.9873096446700504 Y8.98730964467005 I0.027918781725888325 J0.7842639593908629
G3 X8.01776649746193 Y8.99492385786802 I-0.13451776649746194 J0.7741116751269035
G3 X8.114213197969542 Y8.898477157360405 I0.8553299492385786 J0.7791878172588833
G3 X8.32741116751269 Y8.753807106598986 I0.7436548223350253 J0.8578680203045685
G3 X8.578680203045685 Y8.657360406091371 I0.5203045685279188 J0.9847715736040609
G3 X8.845177664974619 Y8.624365482233502 I0.26649746192893403 J1.0761421319796955
G3 X9.276649746192893 Y8.710659898477157 I0 J1.116751269035533
G3 X9.642131979695431 Y8.954314720812183 I-0.4365482233502538 J1.0482233502538072
G3 X9.888324873096447 Y9.32233502538071 I-0.8045685279187818 J0.8020304568527918
G3 X9.974619289340103 Y9.751269035532994 I-1.032994923857868 J0.4289340101522843
G3 X9.888324873096447 Y10.180203045685278 I-1.116751269035533 J0
G3 X9.642131979695431 Y10.548223350253807 I-1.0482233502538072 J-0.4365482233502538
G3 X9.276649746192893 Y10.791878172588834 I-0.8020304568527918 J-0.8020304568527918
G3 X8.845177664974619 Y10.878172588832486 I-0.4289340101522843 J-1.0304568527918783
G3 X8.583756345177665 Y10.847715736040609 I0 J-1.1015228426395938
G3 X8.33756345177665 Y10.753807106598984 I0.2639593908629442 J-1.0761421319796955
G3 X8.126903553299492 Y10.614213197969544 I0.5228426395939086 J-1.0076142131979695
G3 X8.032994923857867 Y10.525380710659899 I0.7538071065989848 J-0.8908629441624366
G3 X8.00253807106599 Y10.530456852791879 I-0.1802030456852792 J-0.7639593908629441
G3 X7.84517766497462 Y10.545685279187818 I-0.15228426395939088 J-0.7690355329949239
G1 X5.710659898477157 Y10.568527918781726
G3 X5.555837563451776 Y10.553299492385786 I-0.007614213197969543 J-0.7842639593908629
G1 X5.538071065989848 Y10.550761421319796
G1 X5.522842639593909 Y10.568527918781726
G3 X5.411167512690356 Y10.67766497461929 I-0.868020304568528 J-0.7842639593908629
G3 X5.284263959390863 Y10.769035532994923 I-0.766497461928934 J-0.9086294416243655
G1 X5.2639593908629445 Y10.781725888324873
G1 X5.2639593908629445 Y10.799492385786802
G3 X5.2664974619289335 Y10.82741116751269 I-0.7842639593908629 J0.027918781725888325
G3 X5.253807106598984 Y10.956852791878173 I-0.7842639593908629 J0
G1 X4.758883248730965 Y13.898477157360407
G3 X4.715736040609137 Y14.053299492385786 I-0.7741116751269035 J-0.1218274111675127
G3 X4.708121827411167 Y14.078680203045685 I-0.7335025380710659 J-0.2766497461928934
G3 X4.756345177664975 Y14.149746192893403 I-0.9137055837563451 J0.7081218274111676
G3 X4.855329949238579 Y14.33502538071066 I-0.9416243654822334 J0.6218274111675127
G3 X4.9213197969543145 Y14.545685279187817 I-1.0253807106598984 J0.4289340101522843
G3 X4.944162436548224 Y14.766497461928934 I-1.0888324873096447 J0.2182741116751269
G3 X4.8578680203045685 Y15.195431472081218 I-1.116751269035533 J0
G3 X4.611675126903553 Y15.560913705583756 I-1.0482233502538072 J-0.4365482233502538
G3 X4.246192893401015 Y15.807106598984772 I-0.8020304568527918 J-0.8020304568527918
G3 X3.817258883248731 Y15.893401015228426 I-0.4289340101522843 J-1.0304568527918783
G3 X3.385786802030457 Y15.807106598984772 I0 J-1.119289340101523
G3 X3.020304568527919 Y15.560913705583756 I0.4365482233502538 J-1.050761421319797
G3 X2.7741116751269033 Y15.195431472081218 I0.8020304568527918 J-0.8045685279187818
G3 X2.687817258883249 Y14.766497461928934 I1.0304568527918783 J-0.4289340101522843
G3 X2.733502538071066 Y14.454314720812182 I1.1065989847715736 J0
G3 X2.8629441624365484 Y14.17005076142132 I1.0710659898477157 J0.31218274111675126
G3 X3.0583756345177666 Y13.936548223350254 I0.9619289340101522 J0.6142131979695432
G3 X3.2005076142131976 Y13.827411167512691 I0.7741116751269035 J0.8553299492385786
G3 X3.197969543147208 Y13.799492385786802 I0.7842639593908629 J-0.050761421319796954
G1 X3.197969543147208 Y13.776649746192893
G3 X3.2106598984771573 Y13.639593908629442 I0.7842639593908629 J0
G0 Z3
G0 X7.845685279187817 Y5.465482233502538
G1 Z-0.35 F100
G1 X5.713197969543147 Y5.4873096446700504 F80
G3 X5.558375634517766 Y5.477157360406092 I-0.027918781725888325 J-0.7842639593908629
G1 X5.535532994923857 Y5.472081218274112
G3 X5.431472081218274 Y5.581218274111675 I-0.8959390862944162 J-0.7741116751269035
G3 X5.2055837563451774 Y5.738578680203046 I-0.7842639593908629 J-0.8730964467005076
G3 X4.939086294416244 Y5.842639593908629 I-0.5507614213197969 J-1.017766497461929
G3 X4.654822335025381 Y5.878172588832488 I-0.28426395939086296 J-1.119289340101523
G3 X4.210659898477157 Y5.789340101522843 I0 J-1.1548223350253808
G3 X3.83248730964467 Y5.535532994923857 I0.45177664974619286 J-1.0837563451776648
G3 X3.5786802030456855 Y5.15736040609137 I0.8299492385786802 J-0.8299492385786802
G3 X3.489847715736041 Y4.713197969543147 I1.0659898477157361 J-0.44416243654822335
G3 X3.5786802030456855 Y4.269035532994923 I1.1573604060913705 J0
G3 X3.83248730964467 Y3.8908629441624365 I1.0837563451776648 J0.45177664974619286
G3 X4.210659898477157 Y3.6370558375634516 I0.8299492385786802 J0.8299492385786802
G3 X4.654822335025381 Y3.548223350253807 I0.44416243654822335 J1.0659898477157361
G3 X4.931472081218274 Y3.581218274111675 I0 J1.1472081218274113
G3 X5.192893401015228 Y3.682741116751269 I-0.27918781725888325 J1.116751269035533
G3 X5.416243654822335 Y3.83502538071066 I-0.5507614213197969 J1.0380710659898478
G3 X5.517766497461929 Y3.9365482233502536 I-0.7868020304568528 J0.901015228426396
G1 X5.543147208121827 Y3.931472081218274
G3 X5.695431472081218 Y3.918781725888325 I0.1446700507614213 J0.7715736040609138
G1 X7.824873096446701 Y3.895939086294416
G3 X7.9873096446700504 Y3.9086294416243654 I0.027918781725888325 J0.7842639593908629
G3 X8.01776649746193 Y3.913705583756345 I-0.13451776649746194 J0.7741116751269035
G3 X8.114213197969542 Y3.8197969543147208 I0.8553299492385786 J0.7791878172588833
G3 X8.32741116751269 Y3.6725888324873095 I0.7436548223350253 J0.8578680203045685
G3 X8.578680203045685 Y3.5761421319796955 I0.5203045685279188 J0.9847715736040609
G3 X8.845177664974619 Y3.5431472081218276 I0.26649746192893403 J1.0761421319796955
G3 X9.276649746192893 Y3.629441624365482 I0 J1.116751269035533
G3 X9.642131979695431 Y3.8756345177664975 I-0.4365482233502538 J1.0482233502538072
G3 X9.888324873096447 Y4.241116751269035 I-0.8020304568527918 J0.8020304568527918
G3 X9.974619289340103 Y4.67005076142132 I-1.0304568527918783 J0.4289340101522843
G3 X9.888324873096447 Y5.101522842639595 I-1.119289340101523 J0
G3 X9.642131979695431 Y5.467005076142132 I-1.050761421319797 J-0.4365482233502538
G3 X9.276649746192893 Y5.713197969543147 I-0.8045685279187818 J-0.8020304568527918
G3 X8.845177664974619 Y5.799492385786802 I-0.4289340101522843 J-1.0304568527918783
G3 X8.583756345177665 Y5.766497461928934 I0 J-1.1015228426395938
G3 X8.33756345177665 Y5.675126903553299 I0.2639593908629442 J-1.0786802030456852
G3 X8.126903553299492 Y5.532994923857868 I0.5228426395939086 J-1.0076142131979695
G3 X8.032994923857867 Y5.444162436548224 I0.7538071065989848 J-0.8908629441624366
G3 X8.00253807106599 Y5.451776649746193 I-0.1802030456852792 J-0.7639593908629441
G3 X7.84517766497462 Y5.464467005076142 I-0.15228426395939088 J-0.7690355329949239
G0 Z3
G0 X17.419035532994926 Y13.419035532994924
G1 Z-0.35 F100
G1 X15.51269035532995 Y13.418781725888325 F80
G3 X15.34010152284264 Y13.243654822335024 I0 J-0.17512690355329952
G1 X15.34010152284264 Y11.340101522842641
G3 X15.51269035532995 Y11.16497461928934 I0.17512690355329952 J0
G1 X17.418781725888326 Y11.16497461928934
G3 X17.593908629441625 Y11.340101522842641 I0 J0.17512690355329952
G1 X17.593908629441625 Y11.49492385786802
G1 X17.918781725888323 Y11.48984771573604
G3 X18.073604060913706 Y11.5 I0.027918781725888325 J0.7842639593908629
G1 X18.096446700507613 Y11.50507614213198
G3 X18.200507614213198 Y11.395939086294415 I0.8984771573604061 J0.7741116751269035
G3 X18.428934010152286 Y11.238578680203046 I0.7868020304568528 J0.8730964467005076
G3 X18.695431472081218 Y11.134517766497463 I0.5507614213197969 J1.017766497461929
G3 X18.977157360406093 Y11.098984771573603 I0.28426395939086296 J1.119289340101523
G3 X19.421319796954315 Y11.187817258883248 I0 J1.1548223350253808
G3 X19.802030456852794 Y11.439086294416242 I-0.45177664974619286 J1.0837563451776648
G3 X20.055837563451778 Y11.819796954314722 I-0.8299492385786802 J0.8299492385786802
G3 X20.14213197969543 Y12.263959390862944 I-1.0659898477157361 J0.44416243654822335
G3 X20.055837563451778 Y12.708121827411167 I-1.1573604060913705 J0
G3 X19.802030456852794 Y13.086294416243655 I-1.0837563451776648 J-0.45177664974619286
G3 X19.421319796954315 Y13.340101522842641 I-0.8299492385786802 J-0.8299492385786802
G3 X18.977157360406093 Y13.428934010152284 I-0.44416243654822335 J-1.0659898477157361
G3 X18.700507614213198 Y13.393401015228426 I0 J-1.1472081218274113
G3 X18.439086294416242 Y13.294416243654823 I0.27918781725888325 J-1.119289340101523
G3 X18.21827411167513 Y13.142131979695431 I0.5507614213197969 J-1.0380710659898478
G3 X18.114213197969544 Y13.040609137055839 I0.7842639593908629 J-0.901015228426396
G1 X18.091370558375633 Y13.045685279187818
G3 X17.939086294416246 Y13.058375634517766 I-0.14720812182741116 J-0.7715736040609138
G1 X17.593908629441625 Y13.063451776649746
G1 X17.593908629441625 Y13.243654822335024
G3 X17.418781725888326 Y13.418781725888325 I-0.17512690355329952 J0
G0 Z3
G0 X17.574365482233503 Y6.574619289340101
G1 Z-0.35 F100
G1 X18.578680203045685 Y6.715736040609137 F80
G3 X18.733502538071065 Y6.751269035532995 I-0.09898477157360405 J0.7791878172588833
G1 X18.751269035532996 Y6.758883248730965
G3 X18.83502538071066 Y6.692893401015229 I0.7893401015228427 J0.9111675126903553
G3 X19.038071065989847 Y6.573604060913706 I0.6852791878172588 J0.9467005076142132
G3 X19.269035532994923 Y6.49746192893401 I0.47461928934010156 J1.0406091370558377
G3 X19.51015228426396 Y6.472081218274112 I0.24111675126903553 J1.114213197969543
G3 X19.95431472081218 Y6.560913705583756 I0 J1.1548223350253808
G3 X20.33248730964467 Y6.814720812182741 I-0.45177664974619286 J1.0837563451776648
G3 X20.586294416243653 Y7.192893401015228 I-0.83248730964467 J0.8299492385786802
G3 X20.6751269035533 Y7.6370558375634525 I-1.0659898477157361 J0.44416243654822335
G3 X20.586294416243653 Y8.081218274111675 I-1.1548223350253808 J0
G3 X20.33248730964467 Y8.461928934010153 I-1.0837563451776648 J-0.45177664974619286
G3 X19.95431472081218 Y8.715736040609137 I-0.8299492385786802 J-0.8299492385786802
G3 X19.51015228426396 Y8.804568527918782 I-0.44416243654822335 J-1.0659898477157361
G3 X19.190355329949238 Y8.758883248730964 I0 J-1.1421319796954315
G3 X18.893401015228427 Y8.624365482233502 I0.3223350253807106 J-1.1065989847715736
G3 X18.65482233502538 Y8.421319796954315 I0.6319796954314721 J-0.9949238578680203
G3 X18.54060913705584 Y8.276649746192893 I0.883248730964467 J-0.8020304568527918
G3 X18.492385786802032 Y8.279187817258883 I-0.06852791878172589 J-0.7817258883248732
G3 X18.426395939086294 Y8.276649746192893 I-0.012690355329949238 J-0.7842639593908629
G3 X18.36548223350254 Y8.269035532994923 I0.05583756345177665 J-0.7817258883248732
G1 X17.36040609137056 Y8.129441624365482
G3 X17.20304568527919 Y8.093908629441625 I0.09390862944162437 J-0.7791878172588833
G3 X17.17766497461929 Y8.083756345177665 I0.24873096446700507 J-0.7436548223350253
G3 X17.101522842639593 Y8.142131979695431 I-0.7284263959390863 J-0.8908629441624366
G3 X16.911167512690355 Y8.246192893401016 I-0.6395939086294417 J-0.9289340101522843
G3 X16.692893401015226 Y8.314720812182742 I-0.44416243654822335 J-1.0228426395939085
G3 X16.467005076142133 Y8.340101522842641 I-0.22588832487309643 J-1.0913705583756346
G3 X16.038071065989847 Y8.253807106598984 I0 J-1.116751269035533
G3 X15.670050761421319 Y8.00761421319797 I0.4365482233502538 J-1.0482233502538072
G3 X15.423857868020306 Y7.6421319796954315 I0.8045685279187818 J-0.8045685279187818
G3 X15.34010152284264 Y7.210659898477157 I1.0304568527918783 J-0.4289340101522843
G1 X15.34010152284264 Y7.210659898477157
G3 X15.423857868020306 Y6.781725888324873 I1.116751269035533 J0
G3 X15.670050761421319 Y6.416243654822335 I1.050761421319797 J0.4365482233502538
G3 X16.038071065989847 Y6.17005076142132 I0.8045685279187818 J0.8045685279187818
G3 X16.467005076142133 Y6.083756345177665 I0.4289340101522843 J1.0304568527918783
G3 X16.769035532994923 Y6.126903553299492 I0 J1.1040609137055837
G3 X17.048223350253807 Y6.248730964467005 I-0.30456852791878175 J1.0710659898477157
G3 X17.276649746192895 Y6.436548223350254 I-0.5989847715736041 J0.9720812182741116
G3 X17.385786802030456 Y6.568527918781726 I-0.8401015228426396 J0.7969543147208122
G3 X17.416243654822335 Y6.565989847715736 I0.06598984771573604 J0.7817258883248732
G3 X17.573604060913706 Y6.573604060913706 I0.03553299492385787 J0.7842639593908629
G0 Z3
G0 X29.24010152284264 Y13.804060913705584
G1 Z-0.35 F100
G1 X29.241116751269036 Y12.923857868020306 F80
G3 X29.416243654822335 Y12.748730964467006 I0.17512690355329952 J0
G1 X29.69035532994924 Y12.748730964467006
G3 X29.86548223350254 Y12.923857868020306 I0 J0.17512690355329952
G1 X29.86548223350254 Y13.804568527918782
G3 X29.69035532994924 Y13.97969543147208 I-0.17512690355329952 J0
G1 X29.416243654822335 Y13.97969543147208
G3 X29.241116751269036 Y13.804568527918782 I0 J-0.17512690355329952
G0 Z3
G0 X29.300761421319798 Y27.568274111675127
G1 Z-0.35 F100
G1 X28.44670050761421 Y27.568527918781726 F80
G3 X28.27157360406091 Y27.393401015228424 I0 J-0.17512690355329952
G1 X28.27157360406091 Y27.071065989847718
G3 X28.44670050761421 Y26.89593908629442 I0.17512690355329952 J0
G1 X29.2994923857868 Y26.89593908629442
G1 X29.2994923857868 Y26.04060913705584
G3 X29.474619289340104 Y25.86548223350254 I0.17512690355329952 J0
G1 X29.80203045685279 Y25.86548223350254
G3 X29.977157360406093 Y26.04060913705584 I0 J0.17512690355329952
G1 X29.977157360406093 Y26.89593908629442
G1 X30.83248730964467 Y26.89593908629442
G3 X31.00761421319797 Y27.071065989847718 I0 J0.17512690355329952
G1 X31.00761421319797 Y27.393401015228424
G3 X30.83248730964467 Y27.568527918781726 I-0.17512690355329952 J0
G1 X29.977157360406093 Y27.568527918781726
G1 X29.977157360406093 Y28.423857868020303
G3 X29.80203045685279 Y28.598984771573605 I-0.17512690355329952 J0
G1 X29.474619289340104 Y28.598984771573605
G3 X29.2994923857868 Y28.423857868020303 I0 J-0.17512690355329952
G1 X29.2994923857868 Y27.568527918781726
G0 Z3
M5
M30
